; generated by Slic3r 1.2.0-dev on 2014-06-12 at 23:56:15

; external perimeters extrusion width = 0.50mm
; perimeters extrusion width = 0.52mm
; infill extrusion width = 0.52mm
; solid infill extrusion width = 0.52mm
; top infill extrusion width = 0.52mm

G21 ; set units to millimeters
M107
M104 S200 ; set temperature
G28 ; home all axes
G1 Z5 F5000 ; lift nozzle

M109 S200 ; wait for temperature to be reached
G90 ; use absolute coordinates
G92 E0
M82 ; use absolute distances for extrusion
G1 F1800.000 E-1.00000
G92 E0
G1 Z0.350 F7800.000
G1 X50.604 Y64.888 F7800.000
G1 E1.00000 F1800.000
G1 X57.369 Y59.973 E1.27206 F1080.000
G1 X58.574 Y59.277 E1.31734
G1 X66.213 Y55.876 E1.58939
G1 X67.537 Y55.446 E1.63466
G1 X75.717 Y53.707 E1.90675
G1 X77.101 Y53.562 E1.95204
G1 X85.463 Y53.562 E2.22410
G1 X86.847 Y53.707 E2.26938
G1 X95.027 Y55.446 E2.54147
G1 X96.351 Y55.876 E2.58674
G1 X104.123 Y59.338 E2.86356
G1 X161.303 Y86.405 E4.92181
G1 X162.941 Y87.515 E4.98619
G1 X164.041 Y88.450 E5.03317
G1 X165.401 Y89.887 E5.09754
G1 X166.270 Y91.031 E5.14427
G1 X167.290 Y92.726 E5.20863
G1 X167.894 Y94.032 E5.25546
G1 X168.526 Y95.907 E5.31983
G1 X168.836 Y97.313 E5.36668
G1 X169.050 Y99.280 E5.43106
G1 X169.050 Y100.720 E5.47791
G1 X168.836 Y102.687 E5.54229
G1 X168.526 Y104.093 E5.58914
G1 X167.894 Y105.968 E5.65351
G1 X167.290 Y107.274 E5.70034
G1 X166.270 Y108.969 E5.76470
G1 X165.401 Y110.113 E5.81142
G1 X164.041 Y111.550 E5.87580
G1 X162.941 Y112.485 E5.92278
G1 X161.374 Y113.546 E5.98434
G1 X160.409 Y114.105 E6.02063
G1 X103.990 Y140.723 E8.05027
G1 X96.351 Y144.124 E8.32232
G1 X95.027 Y144.554 E8.36759
G1 X86.847 Y146.293 E8.63968
G1 X85.463 Y146.438 E8.68496
G1 X77.101 Y146.438 E8.95702
G1 X75.717 Y146.293 E9.00231
G1 X67.537 Y144.554 E9.27440
G1 X66.213 Y144.124 E9.31967
G1 X58.574 Y140.723 E9.59172
G1 X57.369 Y140.027 E9.63700
G1 X50.604 Y135.112 E9.90906
G1 X49.570 Y134.180 E9.95434
G1 X44.219 Y128.237 E10.21453
G1 X43.293 Y127.066 E10.26310
G1 X32.155 Y109.435 E10.94160
G1 X31.168 Y106.628 E11.03843
G1 X30.911 Y103.978 E11.12504
G1 X30.953 Y95.274 E11.40822
G1 X31.168 Y93.372 E11.47050
G1 X32.155 Y90.565 E11.56733
G1 X43.974 Y72.035 E12.28240
G1 X49.570 Y65.820 E12.55449
G1 X50.548 Y64.938 E12.59733
G1 F1800.000 E11.59733
G92 E0
G1 X43.225 Y106.182 F7800.000
G1 E1.00000 F1800.000
G1 X41.269 Y106.866 E1.06743 F378.000
G1 X39.513 Y105.765 E1.13485
G1 X39.280 Y103.705 E1.20230
G1 X40.746 Y102.238 E1.26975
G1 X42.806 Y102.470 E1.33719
G1 X43.908 Y104.224 E1.40460
G1 X43.250 Y106.111 E1.46961
G1 X43.281 Y106.678 F7800.000
G1 F1800.000 E0.46961
G92 E0
G1 X42.806 Y97.530 F7800.000
G1 E1.00000 F1800.000
G1 X40.746 Y97.762 E1.06745 F378.000
G1 X39.280 Y96.295 E1.13490
G1 X39.513 Y94.235 E1.20235
G1 X41.269 Y93.134 E1.26977
G1 X43.225 Y93.818 E1.33719
G1 X43.908 Y95.776 E1.40464
G1 X42.846 Y97.466 E1.46961
G1 X42.750 Y98.027 F7800.000
G1 F1800.000 E0.46961
G92 E0
G1 X146.556 Y98.743 F7800.000
G1 E1.00000 F1800.000
G1 X147.463 Y96.398 E1.08181 F540.000
G1 X149.158 Y94.539 E1.16366
G1 X151.410 Y93.419 E1.24549
G1 X153.913 Y93.186 E1.32728
G1 X156.332 Y93.874 E1.40912
G1 X158.339 Y95.390 E1.49094
G1 X159.663 Y97.529 E1.57277
G1 X160.125 Y100.000 E1.65457
G1 X159.663 Y102.471 E1.73638
G1 X158.339 Y104.610 E1.81821
G1 X156.332 Y106.126 E1.90002
G1 X153.913 Y106.814 E1.98187
G1 X151.410 Y106.581 E2.06365
G1 X149.158 Y105.461 E2.14549
G1 X147.463 Y103.602 E2.22734
G1 X146.556 Y101.257 E2.30915
G1 X146.556 Y98.818 E2.38849
G1 X147.213 Y98.866 F7800.000
G1 X148.032 Y96.750 E2.46231 F540.000
G1 X149.561 Y95.072 E2.53616
G1 X151.593 Y94.062 E2.60999
G1 X153.851 Y93.852 E2.68380
G1 X156.035 Y94.473 E2.75764
G1 X157.845 Y95.840 E2.83146
G1 X159.039 Y97.770 E2.90530
G1 X159.457 Y100.000 E2.97911
G1 X159.039 Y102.230 E3.05293
G1 X157.845 Y104.160 E3.12677
G1 X156.035 Y105.527 E3.20058
G1 X153.851 Y106.148 E3.27443
G1 X151.593 Y105.938 E3.34823
G1 X149.561 Y104.928 E3.42207
G1 X148.032 Y103.250 E3.49592
G1 X147.213 Y101.134 E3.56974
G1 X147.213 Y98.941 E3.64110
G1 X147.870 Y98.989 F7800.000
G1 X148.600 Y97.102 E3.70693 F378.000
G1 X149.963 Y95.606 E3.77277
G1 X151.776 Y94.705 E3.83862
G1 X153.790 Y94.517 E3.90444
G1 X155.737 Y95.071 E3.97029
G1 X157.351 Y96.290 E4.03611
G1 X158.416 Y98.011 E4.10196
G1 X158.788 Y100.000 E4.16778
G1 X158.416 Y101.989 E4.23360
G1 X157.351 Y103.710 E4.29946
G1 X155.737 Y104.929 E4.36527
G1 X153.790 Y105.483 E4.43113
G1 X151.776 Y105.295 E4.49694
G1 X149.963 Y104.394 E4.56279
G1 X148.600 Y102.898 E4.62864
G1 X147.870 Y101.011 E4.69447
G1 X147.870 Y99.064 E4.75784
G1 X147.511 Y98.641 F7800.000
G1 X145.805 Y100.000 F7800.000
G1 X145.519 Y102.723 E4.84692 F540.000
G1 X144.673 Y105.328 E4.93602
G1 X143.304 Y107.699 E5.02509
G1 X141.472 Y109.734 E5.11418
G1 X139.256 Y111.343 E5.20328
G1 X136.755 Y112.457 E5.29236
G1 X134.076 Y113.026 E5.38148
G1 X131.338 Y113.026 E5.47054
G1 X128.659 Y112.457 E5.55966
G1 X126.158 Y111.343 E5.64873
G1 X123.942 Y109.734 E5.73783
G1 X122.110 Y107.699 E5.82692
G1 X120.741 Y105.328 E5.91600
G1 X119.895 Y102.723 E6.00510
G1 X119.609 Y100.000 E6.09418
G1 X119.895 Y97.277 E6.18326
G1 X120.741 Y94.672 E6.27236
G1 X122.110 Y92.301 E6.36143
G1 X123.942 Y90.266 E6.45052
G1 X126.158 Y88.657 E6.53962
G1 X128.659 Y87.543 E6.62870
G1 X131.338 Y86.974 E6.71782
G1 X134.076 Y86.974 E6.80688
G1 X136.755 Y87.543 E6.89600
G1 X139.256 Y88.657 E6.98507
G1 X141.472 Y90.266 E7.07417
G1 X143.304 Y92.301 E7.16326
G1 X144.673 Y94.672 E7.25234
G1 X145.519 Y97.277 E7.34144
G1 X145.797 Y99.925 E7.42808
G1 X145.145 Y100.000 F7800.000
G1 X144.872 Y102.586 E7.51266 F540.000
G1 X144.069 Y105.059 E7.59727
G1 X142.769 Y107.310 E7.68185
G1 X141.030 Y109.243 E7.76645
G1 X138.925 Y110.771 E7.85106
G1 X136.551 Y111.829 E7.93564
G1 X134.007 Y112.369 E8.02026
G1 X131.407 Y112.369 E8.10483
G1 X128.863 Y111.829 E8.18945
G1 X126.489 Y110.771 E8.27403
G1 X124.384 Y109.243 E8.35864
G1 X122.645 Y107.310 E8.44324
G1 X121.345 Y105.059 E8.52782
G1 X120.542 Y102.586 E8.61242
G1 X120.269 Y100.000 E8.69701
G1 X120.542 Y97.414 E8.78160
G1 X121.345 Y94.941 E8.86620
G1 X122.645 Y92.690 E8.95078
G1 X124.384 Y90.757 E9.03538
G1 X126.489 Y89.229 E9.11999
G1 X128.863 Y88.171 E9.20457
G1 X131.407 Y87.631 E9.28919
G1 X134.007 Y87.631 E9.37376
G1 X136.551 Y88.171 E9.45839
G1 X138.925 Y89.229 E9.54296
G1 X141.030 Y90.757 E9.62758
G1 X142.769 Y92.690 E9.71217
G1 X144.069 Y94.941 E9.79675
G1 X144.872 Y97.414 E9.88136
G1 X145.137 Y99.925 E9.96350
G1 X144.484 Y100.000 F7800.000
G1 X144.226 Y102.448 E10.04360 F378.000
G1 X143.466 Y104.790 E10.12371
G1 X142.235 Y106.922 E10.20380
G1 X140.587 Y108.752 E10.28390
G1 X138.595 Y110.199 E10.36402
G1 X136.347 Y111.201 E10.44410
G1 X133.938 Y111.712 E10.52422
G1 X131.476 Y111.712 E10.60431
G1 X129.067 Y111.201 E10.68443
G1 X126.819 Y110.199 E10.76451
G1 X124.827 Y108.752 E10.84464
G1 X123.179 Y106.922 E10.92474
G1 X121.948 Y104.790 E11.00482
G1 X121.188 Y102.448 E11.08494
G1 X120.930 Y100.000 E11.16503
G1 X121.188 Y97.552 E11.24512
G1 X121.948 Y95.210 E11.32524
G1 X123.179 Y93.078 E11.40532
G1 X124.827 Y91.248 E11.48542
G1 X126.819 Y89.801 E11.56554
G1 X129.067 Y88.799 E11.64562
G1 X131.476 Y88.288 E11.72575
G1 X133.938 Y88.288 E11.80583
G1 X136.347 Y88.799 E11.88596
G1 X138.595 Y89.801 E11.96604
G1 X140.587 Y91.248 E12.04616
G1 X142.235 Y93.078 E12.12626
G1 X143.466 Y95.210 E12.20635
G1 X144.226 Y97.552 E12.28646
G1 X144.476 Y99.925 E12.36411
G1 X144.908 Y100.265 F7800.000
G1 F1800.000 E11.36411
G92 E0
G1 X44.363 Y92.824 F7800.000
G1 E1.00000 F1800.000
G1 X43.620 Y92.564 E1.02561 F540.000
G1 X46.269 Y84.412 E1.30451
G1 X50.275 Y77.473 E1.56519
G1 X55.637 Y71.518 E1.82590
G1 X62.119 Y66.808 E2.08658
G1 X69.438 Y63.549 E2.34726
G1 X77.276 Y61.883 E2.60796
G1 X85.288 Y61.883 E2.86864
G1 X93.126 Y63.549 E3.12934
G1 X100.588 Y66.872 E3.39511
G1 X156.741 Y93.366 E5.41520
G1 X158.122 Y94.302 E5.46947
G1 X159.233 Y95.476 E5.52206
G1 X160.067 Y96.861 E5.57466
G1 X160.583 Y98.393 E5.62726
G1 X160.758 Y100.000 E5.67985
G1 X160.583 Y101.607 E5.73245
G1 X160.067 Y103.139 E5.78504
G1 X159.233 Y104.524 E5.83764
G1 X158.122 Y105.698 E5.89023
G1 X156.741 Y106.634 E5.94451
G1 X100.588 Y133.128 E7.96459
G1 X93.126 Y136.451 E8.23036
G1 X85.288 Y138.117 E8.49107
G1 X77.276 Y138.117 E8.75175
G1 X69.438 Y136.451 E9.01245
G1 X62.119 Y133.192 E9.27312
G1 X55.637 Y128.482 E9.53380
G1 X50.275 Y122.527 E9.79451
G1 X46.269 Y115.588 E10.05520
G1 X43.620 Y107.436 E10.33410
G1 X44.363 Y107.176 E10.35970
G1 X44.432 Y107.833 E10.38120
G1 X46.865 Y115.324 E10.63745
G1 X50.803 Y122.144 E10.89367
G1 X56.073 Y127.997 E11.14992
G1 X62.445 Y132.626 E11.40617
G1 X69.640 Y135.829 E11.66240
G1 X77.344 Y137.467 E11.91866
G1 X85.220 Y137.467 E12.17490
G1 X92.924 Y135.829 E12.43116
G1 X100.119 Y132.626 E12.68739
G1 X106.491 Y127.997 E12.94365
G1 X111.761 Y122.144 E13.19989
G1 X115.699 Y115.324 E13.45612
G1 X118.132 Y107.833 E13.71236
G1 X118.955 Y100.000 E13.96861
G1 X118.132 Y92.167 E14.22486
G1 X115.699 Y84.676 E14.48111
G1 X111.761 Y77.856 E14.73733
G1 X106.491 Y72.003 E14.99358
G1 X100.527 Y67.670 E15.23343
G1 X100.119 Y67.374 E15.24983
G1 X92.924 Y64.171 E15.50606
G1 X85.220 Y62.533 E15.76232
G1 X77.344 Y62.533 E16.01856
G1 X69.640 Y64.171 E16.27482
G1 X62.445 Y67.374 E16.53105
G1 X56.073 Y72.003 E16.78731
G1 X50.803 Y77.856 E17.04355
G1 X46.865 Y84.676 E17.29978
G1 X44.432 Y92.167 E17.55602
G1 X44.371 Y92.750 E17.57508
G1 X42.797 Y92.973 F7800.000
G1 X45.665 Y84.143 E17.87713 F540.000
G1 X49.740 Y77.084 E18.14231
G1 X55.195 Y71.027 E18.40752
G1 X61.788 Y66.236 E18.67269
G1 X69.234 Y62.921 E18.93786
G1 X77.207 Y61.226 E19.20306
G1 X85.357 Y61.226 E19.46823
G1 X93.330 Y62.921 E19.73342
G1 X100.862 Y66.275 E20.00168
G1 X157.068 Y92.793 E22.02366
G1 X158.550 Y93.798 E22.08192
G1 X159.759 Y95.076 E22.13916
G1 X160.667 Y96.583 E22.19640
G1 X161.229 Y98.251 E22.25365
G1 X161.419 Y100.000 E22.31090
G1 X161.229 Y101.749 E22.36814
G1 X160.667 Y103.417 E22.42539
G1 X159.759 Y104.924 E22.48264
G1 X158.550 Y106.202 E22.53988
G1 X157.068 Y107.207 E22.59814
G1 X100.862 Y133.725 E24.62012
G1 X93.330 Y137.079 E24.88837
G1 X85.357 Y138.774 E25.15357
G1 X77.207 Y138.774 E25.41874
G1 X69.234 Y137.079 E25.68394
G1 X61.788 Y133.764 E25.94911
G1 X55.195 Y128.973 E26.21428
G1 X49.740 Y122.916 E26.47949
G1 X45.665 Y115.857 E26.74466
G1 X42.797 Y107.027 E27.04672
G1 X43.741 Y106.697 E27.07925
G1 X44.371 Y104.892 E27.14146
G1 X44.789 Y104.941 E27.15515
G1 X45.078 Y107.695 E27.24528
G1 X47.469 Y115.055 E27.49703
G1 X51.338 Y121.755 E27.74876
G1 X56.515 Y127.506 E28.00051
G1 X62.776 Y132.054 E28.25227
G1 X69.844 Y135.201 E28.50401
G1 X77.413 Y136.810 E28.75577
G1 X85.151 Y136.810 E29.00752
G1 X92.720 Y135.201 E29.25928
G1 X99.788 Y132.054 E29.51102
G1 X106.049 Y127.506 E29.76278
G1 X111.226 Y121.755 E30.01453
G1 X115.095 Y115.055 E30.26626
G1 X117.485 Y107.696 E30.51802
G1 X118.295 Y100.000 E30.76977
G1 X117.485 Y92.304 E31.02153
G1 X115.095 Y84.945 E31.27328
G1 X111.226 Y78.245 E31.52501
G1 X106.049 Y72.494 E31.77676
G1 X100.140 Y68.202 E32.01436
G1 X99.788 Y67.946 E32.02852
G1 X92.720 Y64.799 E32.28026
G1 X85.151 Y63.190 E32.53202
G1 X77.413 Y63.190 E32.78377
G1 X69.844 Y64.799 E33.03553
G1 X62.776 Y67.946 E33.28727
G1 X56.515 Y72.494 E33.53903
G1 X51.338 Y78.245 E33.79078
G1 X47.469 Y84.945 E34.04251
G1 X45.078 Y92.305 E34.29427
G1 X44.789 Y95.059 E34.38439
G1 X44.371 Y95.108 E34.39808
G1 X43.741 Y93.303 E34.46029
G1 X42.868 Y92.997 E34.49038
G1 X44.229 Y96.500 F7800.000
G1 X44.623 Y96.637 E34.50397 F540.000
G1 X44.428 Y98.493 E34.56469
G1 X42.977 Y98.493 E34.61192
G1 X44.189 Y96.564 E34.68604
G1 F1800.000 E33.68604
G92 E0
G1 X44.428 Y101.507 F7800.000
G1 E1.00000 F1800.000
G1 X44.623 Y103.363 E1.06072 F540.000
G1 X44.229 Y103.500 E1.07431
G1 X42.977 Y101.507 E1.15087
G1 X44.353 Y101.507 E1.19565
G1 X42.433 Y108.034 F7800.000
G1 X40.635 Y108.019 E1.25415 F378.000
G1 X39.099 Y107.196 E1.31084
G1 X38.121 Y105.755 E1.36751
G1 X37.925 Y104.024 E1.42417
G1 X38.557 Y102.401 E1.48083
G1 X39.871 Y101.257 E1.53753
G1 X41.579 Y100.850 E1.59464
G1 X45.020 Y100.850 E1.70661
G1 X45.725 Y107.558 E1.92606
G1 X48.072 Y114.786 E2.17332
G1 X51.872 Y121.367 E2.42055
G1 X56.958 Y127.015 E2.66781
G1 X63.106 Y131.482 E2.91508
G1 X70.048 Y134.573 E3.16232
G1 X77.482 Y136.153 E3.40959
G1 X85.082 Y136.153 E3.65684
G1 X92.516 Y134.573 E3.90411
G1 X99.458 Y131.482 E4.15136
G1 X105.606 Y127.015 E4.39863
G1 X110.692 Y121.367 E4.64588
G1 X114.492 Y114.786 E4.89312
G1 X116.839 Y107.558 E5.14038
G1 X117.634 Y100.000 E5.38764
G1 X116.839 Y92.442 E5.63490
G1 X114.492 Y85.214 E5.88216
G1 X110.692 Y78.633 E6.12939
G1 X105.606 Y72.985 E6.37665
G1 X99.458 Y68.518 E6.62392
G1 X92.516 Y65.427 E6.87116
G1 X85.082 Y63.847 E7.11843
G1 X77.482 Y63.847 E7.36569
G1 X70.048 Y65.427 E7.61296
G1 X63.106 Y68.518 E7.86020
G1 X56.958 Y72.985 E8.10747
G1 X51.872 Y78.633 E8.35472
G1 X48.072 Y85.214 E8.60196
G1 X45.725 Y92.442 E8.84922
G1 X45.020 Y99.150 E9.06867
G1 X41.579 Y99.150 E9.18063
G1 X39.871 Y98.743 E9.23774
G1 X38.557 Y97.599 E9.29444
G1 X37.925 Y95.976 E9.35111
G1 X38.121 Y94.245 E9.40777
G1 X39.099 Y92.804 E9.46444
G1 X40.635 Y91.981 E9.52113
G1 X42.433 Y91.966 E9.57962
G1 X45.062 Y83.874 E9.85643
G1 X49.206 Y76.696 E10.12610
G1 X54.752 Y70.536 E10.39581
G1 X61.458 Y65.664 E10.66547
G1 X69.030 Y62.293 E10.93513
G1 X77.138 Y60.569 E11.20482
G1 X85.426 Y60.569 E11.47449
G1 X93.534 Y62.293 E11.74418
G1 X101.136 Y65.677 E12.01492
G1 X157.394 Y92.221 E14.03879
G1 X158.978 Y93.294 E14.10104
G1 X160.286 Y94.676 E14.16293
G1 X161.266 Y96.306 E14.22482
G1 X161.874 Y98.109 E14.28672
G1 X162.080 Y100.000 E14.34862
G1 X161.874 Y101.891 E14.41051
G1 X161.266 Y103.694 E14.47241
G1 X160.286 Y105.324 E14.53430
G1 X158.978 Y106.706 E14.59619
G1 X157.394 Y107.779 E14.65844
G1 X101.136 Y134.323 E16.68232
G1 X93.534 Y137.707 E16.95305
G1 X85.426 Y139.431 E17.22274
G1 X77.138 Y139.431 E17.49241
G1 X69.030 Y137.707 E17.76210
G1 X61.458 Y134.336 E18.03176
G1 X54.752 Y129.464 E18.30143
G1 X49.206 Y123.304 E18.57113
G1 X45.062 Y116.126 E18.84080
G1 X42.456 Y108.106 E19.11517
G1 X42.384 Y107.537 F7800.000
G1 F1800.000 E18.11517
G92 E0
G1 X102.684 Y131.635 F7800.000
G1 E1.00000 F1800.000
G1 X102.612 Y131.563 E1.00331 F1080.000
G1 X103.045 Y131.064 E1.02481
G1 X103.317 Y131.336 E1.03733
G1 X103.951 Y131.037 E1.06012
G1 X103.585 Y130.672 E1.07693
G1 X104.125 Y130.279 E1.09865
G1 X104.584 Y130.738 E1.11977
G1 X105.217 Y130.440 E1.14255
G1 X104.665 Y129.887 E1.16797
G1 X105.205 Y129.495 E1.18968
G1 X105.851 Y130.141 E1.21940
G1 X106.484 Y129.842 E1.24219
G1 X105.745 Y129.103 E1.27620
G1 X106.285 Y128.710 E1.29792
G1 X107.118 Y129.543 E1.33623
G1 X107.751 Y129.244 E1.35902
G1 X106.820 Y128.313 E1.40186
G1 X107.261 Y127.822 E1.42334
G1 X108.384 Y128.945 E1.47500
G1 X109.018 Y128.646 E1.49779
G1 X107.703 Y127.332 E1.55827
G1 X108.145 Y126.841 E1.57974
G1 X109.651 Y128.348 E1.64905
G1 X110.284 Y128.049 E1.67183
G1 X108.587 Y126.351 E1.74996
G1 X109.028 Y125.860 E1.77143
G1 X110.918 Y127.750 E1.85838
G1 X111.551 Y127.451 E1.88116
G1 X109.470 Y125.370 E1.97693
G1 X109.912 Y124.879 E1.99840
G1 X112.185 Y127.152 E2.10299
G1 X112.818 Y126.853 E2.12577
G1 X110.353 Y124.389 E2.23918
G1 X110.795 Y123.898 E2.26065
G1 X113.451 Y126.555 E2.38288
G1 X114.085 Y126.256 E2.40566
G1 X111.237 Y123.408 E2.53671
G1 X111.678 Y122.917 E2.55819
G1 X114.718 Y125.957 E2.69805
G1 X115.352 Y125.658 E2.72084
G1 X112.120 Y122.426 E2.86952
G1 X112.464 Y121.838 E2.89169
G1 X115.985 Y125.359 E3.05370
G1 X116.618 Y125.060 E3.07648
G1 X112.805 Y121.247 E3.25193
G1 X113.147 Y120.656 E3.27413
G1 X117.252 Y124.761 E3.46302
G1 X117.885 Y124.463 E3.48581
G1 X113.488 Y120.065 E3.68814
G1 X113.829 Y119.474 E3.71034
G1 X118.519 Y124.164 E3.92611
G1 X119.152 Y123.865 E3.94890
G1 X114.170 Y118.883 E4.17811
G1 X114.512 Y118.292 E4.20032
G1 X119.785 Y123.566 E4.44297
G1 X120.419 Y123.267 E4.46576
G1 X114.853 Y117.701 E4.72186
G1 X115.194 Y117.110 E4.74406
G1 X121.052 Y122.968 E5.01360
G1 X121.685 Y122.669 E5.03638
G1 X115.535 Y116.519 E5.31937
G1 X115.876 Y115.928 E5.34157
