; generated by Slic3r 1.2.0-dev on 2014-06-13 at 11:29:28

; external perimeters extrusion width = 0.50mm
; perimeters extrusion width = 0.52mm
; infill extrusion width = 0.52mm
; solid infill extrusion width = 0.52mm
; top infill extrusion width = 0.52mm

G21 ; set units to millimeters
M107
M104 S200 ; set temperature
G28 ; home all axes
G1 Z5 F5000 ; lift nozzle

M109 S200 ; wait for temperature to be reached
G90 ; use absolute coordinates
G92 E0
M82 ; use absolute distances for extrusion
G1 F1800.000 E-1.00000
G92 E0
G1 Z0.350 F7800.000
G1 X62.467 Y62.751 F7800.000
G1 E1.00000 F1800.000
G1 X63.376 Y61.852 E1.04157 F1080.000
G1 X64.851 Y60.654 E1.10339
G1 X66.383 Y59.740 E1.16144
G1 X94.554 Y47.708 E2.15809
G1 X95.918 Y47.292 E2.20449
G1 X98.643 Y46.771 E2.29474
G1 X101.474 Y46.843 E2.38690
G1 X102.228 Y47.030 E2.41216
G1 X105.491 Y47.991 E2.52282
G1 X133.568 Y59.720 E3.51283
G1 X135.149 Y60.654 E3.57258
G1 X136.624 Y61.852 E3.63441
G1 X137.533 Y62.751 E3.67598
G1 X138.739 Y64.223 E3.73793
G1 X139.780 Y66.003 E3.80500
G1 X152.490 Y98.638 E4.94446
G1 X152.901 Y100.422 E5.00403
G1 X153.067 Y101.711 E5.04630
G1 X153.124 Y103.578 E5.10708
G1 X152.971 Y105.199 E5.16005
G1 X152.588 Y106.926 E5.21762
G1 X152.534 Y107.145 E5.22494
G1 X151.899 Y108.773 E5.28182
G1 X138.536 Y132.828 E6.17710
G1 X137.356 Y134.318 E6.23894
G1 X135.768 Y135.749 E6.30848
G1 X133.940 Y136.924 E6.37917
G1 X133.198 Y137.369 E6.40732
G1 X105.989 Y152.030 E7.41291
G1 X104.082 Y152.708 E7.47877
G1 X101.357 Y153.229 E7.56902
G1 X98.526 Y153.157 E7.66118
G1 X97.772 Y152.970 E7.68644
G1 X95.292 Y152.280 E7.77019
G1 X93.960 Y151.750 E7.81683
G1 X66.463 Y137.173 E8.82938
G1 X64.232 Y135.749 E8.91550
G1 X62.644 Y134.318 E8.98505
G1 X62.391 Y134.003 E8.99820
G1 X60.860 Y131.918 E9.08235
G1 X48.101 Y108.773 E9.94221
G1 X47.466 Y107.145 E9.99909
G1 X47.377 Y106.774 E10.01149
G1 X47.029 Y105.199 E10.06398
G1 X46.876 Y103.578 E10.11695
G1 X46.933 Y101.711 E10.17773
G1 X47.099 Y100.422 E10.22000
G1 X47.799 Y97.703 E10.31136
G1 X60.220 Y66.003 E11.41905
G1 X61.261 Y64.223 E11.48613
G1 X62.419 Y62.808 E11.54564
G1 F1800.000 E10.54564
G92 E0
G1 X99.689 Y118.369 F7800.000
G1 E1.00000 F1800.000
G1 X98.612 Y121.406 E1.10485 F540.000
G1 X98.457 Y121.744 E1.11693
G1 X97.767 Y123.844 E1.18886
G1 X97.877 Y124.471 E1.20956
G1 X97.983 Y126.583 E1.27836
G1 X98.964 Y128.852 E1.35879
G1 X99.168 Y129.281 E1.37425
G1 X99.972 Y130.432 E1.41993
G1 X99.656 Y130.744 E1.43439
G1 X98.457 Y129.878 E1.48249
G1 X97.056 Y128.090 E1.55639
G1 X95.852 Y125.998 E1.63493
G1 X95.203 Y123.895 E1.70655
G1 X95.013 Y120.604 E1.81378
G1 X95.556 Y117.308 E1.92246
G1 X94.619 Y116.472 E1.96332
G1 X94.132 Y116.189 E1.98166
G1 X93.242 Y114.590 E2.04120
G1 X92.449 Y111.685 E2.13916
G1 X92.367 Y111.312 E2.15161
G1 X91.168 Y109.440 E2.22393
G1 X88.080 Y107.729 E2.33877
G1 X87.681 Y107.378 E2.35607
G1 X87.036 Y107.364 E2.37706
G1 X84.836 Y107.010 E2.44957
G1 X82.675 Y107.146 E2.52002
G1 X82.256 Y107.214 E2.53383
G1 X81.042 Y107.635 E2.57563
G1 X80.838 Y107.215 E2.59083
G1 X84.562 Y104.852 E2.73431
G1 X87.219 Y103.192 E2.83624
G1 X88.375 Y102.513 E2.87987
G1 X88.746 Y101.898 E2.90324
G1 X90.376 Y100.699 E2.96908
G1 X88.597 Y99.387 E3.04100
G1 X87.943 Y98.701 E3.07184
G1 X87.266 Y98.576 E3.09423
G1 X85.593 Y98.063 E3.15118
G1 X84.969 Y98.072 E3.17147
G1 X81.389 Y98.026 E3.28797
G1 X78.479 Y98.473 E3.38376
G1 X78.026 Y98.622 E3.39928
G1 X77.837 Y98.177 E3.41503
G1 X79.404 Y97.354 E3.47263
G1 X82.122 Y96.223 E3.56840
G1 X85.694 Y95.149 E3.68973
G1 X87.608 Y94.871 E3.75268
G1 X91.396 Y93.597 E3.88270
G1 X87.868 Y91.372 E4.01841
G1 X87.747 Y91.329 E4.02257
G1 X87.127 Y90.939 E4.04641
G1 X83.601 Y89.755 E4.16743
G1 X80.227 Y87.893 E4.29282
G1 X78.365 Y86.509 E4.36829
G1 X77.465 Y84.391 E4.44316
G1 X77.346 Y82.563 E4.50278
G1 X77.810 Y82.480 E4.51811
G1 X78.402 Y84.552 E4.58822
G1 X79.869 Y86.148 E4.65873
G1 X81.433 Y86.944 E4.71583
G1 X83.852 Y87.478 E4.79643
G1 X87.151 Y87.455 E4.90378
G1 X90.967 Y87.327 E5.02799
G1 X93.528 Y86.948 E5.11222
G1 X96.345 Y85.585 E5.21404
G1 X100.345 Y83.262 E5.36452
G1 X100.564 Y83.127 E5.37291
G1 X100.923 Y82.838 E5.38791
G1 X103.805 Y80.952 E5.49994
G1 X105.262 Y78.510 E5.59246
G1 X105.755 Y77.749 E5.62198
G1 X105.554 Y75.283 E5.70249
G1 X105.488 Y74.811 E5.71798
G1 X104.982 Y73.275 E5.77059
G1 X104.685 Y72.670 E5.79253
G1 X102.919 Y71.095 E5.86951
G1 X101.534 Y70.172 E5.92366
G1 X99.724 Y69.115 E5.99185
G1 X99.954 Y68.671 E6.00811
G1 X101.937 Y69.574 E6.07900
G1 X103.821 Y70.607 E6.14889
G1 X105.973 Y72.087 E6.23387
G1 X108.021 Y74.325 E6.33258
G1 X108.751 Y77.122 E6.42661
G1 X108.559 Y80.358 E6.53210
G1 X108.041 Y82.586 E6.60652
G1 X107.854 Y83.492 E6.63661
G1 X108.348 Y84.738 E6.68023
G1 X108.562 Y85.561 E6.70790
G1 X109.527 Y85.941 E6.74164
G1 X112.753 Y87.380 E6.85655
G1 X113.270 Y87.424 E6.87345
G1 X116.263 Y87.763 E6.97146
G1 X118.669 Y87.201 E7.05182
G1 X120.131 Y86.378 E7.10643
G1 X121.577 Y84.807 E7.17588
G1 X122.166 Y82.721 E7.24639
G1 X122.630 Y82.802 E7.26174
G1 X122.512 Y84.663 E7.32240
G1 X121.610 Y86.891 E7.40061
G1 X120.096 Y88.302 E7.46793
G1 X116.973 Y89.950 E7.58283
G1 X112.996 Y90.909 E7.71591
G1 X111.904 Y91.554 E7.75720
G1 X110.861 Y91.934 E7.79332
G1 X110.890 Y94.366 E7.87247
G1 X112.392 Y94.871 E7.92402
G1 X114.306 Y95.149 E7.98697
G1 X117.878 Y96.223 E8.10831
G1 X120.596 Y97.354 E8.20408
G1 X122.163 Y98.177 E8.26168
G1 X121.974 Y98.622 E8.27743
G1 X121.521 Y98.473 E8.29294
G1 X118.611 Y98.026 E8.38874
G1 X115.031 Y98.072 E8.50523
G1 X114.407 Y98.063 E8.52552
G1 X112.734 Y98.576 E8.58247
G1 X112.057 Y98.701 E8.60487
G1 X111.403 Y99.387 E8.63571
G1 X109.624 Y100.699 E8.70762
G1 X111.254 Y101.898 E8.77347
G1 X111.625 Y102.513 E8.79684
G1 X112.781 Y103.192 E8.84046
G1 X115.438 Y104.852 E8.94240
G1 X119.162 Y107.215 E9.08588
G1 X118.958 Y107.635 E9.10108
G1 X117.744 Y107.214 E9.14288
G1 X117.325 Y107.146 E9.15668
G1 X115.164 Y107.010 E9.22714
G1 X112.964 Y107.364 E9.29965
G1 X112.319 Y107.378 E9.32064
G1 X111.920 Y107.729 E9.33794
G1 X108.625 Y109.555 E9.46050
G1 X107.869 Y111.916 E9.54116
G1 X106.764 Y114.551 E9.63413
G1 X106.741 Y114.649 E9.63738
G1 X105.863 Y116.486 E9.70363
G1 X104.967 Y117.235 E9.74162
G1 X103.729 Y117.761 E9.78539
G1 X102.922 Y117.996 E9.81274
G1 X100.852 Y118.268 E9.88067
G1 X99.763 Y118.362 E9.91623
G1 X100.167 Y118.987 F7800.000
G1 X99.221 Y121.654 E10.00831 F540.000
G1 X99.069 Y121.984 E10.02013
G1 X98.443 Y123.893 E10.08549
G1 X98.531 Y124.398 E10.10215
G1 X98.634 Y126.431 E10.16840
G1 X99.738 Y128.950 E10.25788
G1 X100.626 Y130.220 E10.30830
G1 X100.920 Y130.607 E10.32412
G1 X103.026 Y131.953 E10.40543
G1 X103.270 Y132.143 E10.41550
G1 X105.425 Y133.998 E10.50799
G1 X106.406 Y136.035 E10.58156
G1 X106.673 Y138.143 E10.65070
G1 X106.185 Y138.233 E10.66687
G1 X105.754 Y136.608 E10.72157
G1 X104.473 Y135.006 E10.78831
G1 X102.301 Y133.107 E10.88219
G1 X100.207 Y131.983 E10.95948
G1 X99.947 Y131.765 E10.97054
G1 X97.996 Y130.355 E11.04884
G1 X96.516 Y128.469 E11.12684
G1 X95.246 Y126.263 E11.20968
G1 X94.551 Y123.999 E11.28674
G1 X94.350 Y120.566 E11.39862
G1 X94.849 Y117.558 E11.49781
G1 X94.232 Y117.007 E11.52475
G1 X93.646 Y116.666 E11.54679
G1 X92.629 Y114.840 E11.61480
G1 X91.811 Y111.842 E11.71589
G1 X91.750 Y111.567 E11.72505
G1 X90.704 Y109.934 E11.78815
G1 X87.700 Y108.269 E11.89991
G1 X87.427 Y108.029 E11.91172
G1 X86.976 Y108.020 E11.92638
G1 X84.807 Y107.670 E11.99789
G1 X82.748 Y107.800 E12.06501
G1 X82.418 Y107.853 E12.07589
G1 X80.693 Y108.452 E12.13529
G1 X78.440 Y110.016 E12.22452
G1 X77.269 Y112.517 E12.31438
G1 X77.469 Y116.239 E12.43564
G1 X78.319 Y119.321 E12.53966
G1 X78.941 Y122.318 E12.63925
G1 X79.001 Y125.257 E12.73487
G1 X78.562 Y126.534 E12.77881
G1 X78.083 Y126.398 E12.79500
G1 X78.318 Y125.367 E12.82939
G1 X78.151 Y122.305 E12.92917
G1 X77.052 Y119.199 E13.03636
G1 X75.949 Y116.324 E13.13655
G1 X75.664 Y112.785 E13.25206
G1 X76.525 Y110.250 E13.33917
G1 X79.316 Y107.407 E13.46879
G1 X84.228 Y104.286 E13.65812
G1 X86.881 Y102.628 E13.75992
G1 X87.895 Y102.036 E13.79812
G1 X88.250 Y101.446 E13.82053
G1 X89.268 Y100.698 E13.86162
G1 X88.161 Y99.881 E13.90637
G1 X87.615 Y99.308 E13.93214
G1 X87.110 Y99.215 E13.94884
G1 X85.499 Y98.721 E14.00365
G1 X84.970 Y98.729 E14.02087
G1 X81.432 Y98.683 E14.13600
G1 X78.633 Y99.114 E14.22812
G1 X76.149 Y99.851 E14.31242
G1 X74.466 Y100.657 E14.37315
G1 X72.989 Y102.042 E14.43900
G1 X71.072 Y104.031 E14.52890
G1 X70.310 Y104.740 E14.56276
G1 X69.951 Y104.390 E14.57908
G1 X70.488 Y103.783 E14.60544
G1 X72.229 Y101.581 E14.69677
G1 X74.094 Y99.800 E14.78067
G1 X74.296 Y99.615 E14.78957
G1 X76.627 Y98.047 E14.88099
G1 X76.881 Y97.936 E14.88999
G1 X79.132 Y96.755 E14.97269
G1 X81.906 Y95.602 E15.07043
G1 X85.551 Y94.506 E15.19427
G1 X87.455 Y94.230 E15.25688
G1 X89.876 Y93.415 E15.33998
G1 X87.579 Y91.966 E15.42833
G1 X87.459 Y91.924 E15.43248
G1 X86.841 Y91.535 E15.45622
G1 X83.335 Y90.359 E15.57653
G1 X79.870 Y88.447 E15.70530
G1 X77.823 Y86.925 E15.78830
G1 X76.815 Y84.540 E15.87255
G1 X76.676 Y82.391 E15.94263
G1 X76.727 Y82.145 E15.95078
G1 X77.449 Y79.561 E16.03808
G1 X77.931 Y77.439 E16.10886
G1 X78.398 Y77.491 E16.12413
G1 X78.434 Y82.273 E16.27971
G1 X78.991 Y84.223 E16.34569
G1 X80.271 Y85.614 E16.40720
G1 X81.661 Y86.321 E16.45794
G1 X83.923 Y86.821 E16.53330
G1 X87.136 Y86.798 E16.63784
G1 X90.911 Y86.671 E16.76074
G1 X93.334 Y86.311 E16.84044
G1 X96.027 Y85.010 E16.93775
G1 X100.010 Y82.697 E17.08758
G1 X100.185 Y82.589 E17.09427
G1 X100.537 Y82.306 E17.10897
G1 X103.318 Y80.485 E17.21712
G1 X104.704 Y78.163 E17.30510
G1 X105.082 Y77.579 E17.32774
G1 X104.900 Y75.355 E17.40036
G1 X104.845 Y74.960 E17.41331
G1 X104.372 Y73.524 E17.46251
G1 X104.152 Y73.075 E17.47878
G1 X102.514 Y71.615 E17.55018
G1 X101.184 Y70.728 E17.60218
G1 X98.777 Y69.333 E17.69269
G1 X96.340 Y68.049 E17.78233
G1 X94.563 Y66.296 E17.86355
G1 X93.597 Y64.083 E17.94210
G1 X93.318 Y61.839 E18.01568
G1 X93.808 Y61.750 E18.03186
G1 X94.240 Y63.418 E18.08791
G1 X95.449 Y65.015 E18.15308
G1 X97.320 Y66.716 E18.23535
G1 X97.734 Y66.925 E18.25045
G1 X99.382 Y67.689 E18.30954
G1 X102.242 Y68.991 E18.41177
G1 X104.175 Y70.052 E18.48351
G1 X106.396 Y71.580 E18.57124
G1 X108.610 Y73.996 E18.67784
G1 X109.417 Y77.069 E18.78121
G1 X109.212 Y80.452 E18.89148
G1 X108.683 Y82.727 E18.96748
G1 X108.537 Y83.432 E18.99090
G1 X108.974 Y84.533 E19.02944
G1 X109.114 Y85.072 E19.04756
G1 X109.782 Y85.335 E19.07089
G1 X112.919 Y86.734 E19.18266
G1 X116.232 Y87.098 E19.29111
G1 X118.421 Y86.584 E19.36425
G1 X119.720 Y85.854 E19.41274
G1 X120.987 Y84.478 E19.47360
G1 X121.545 Y82.503 E19.54038
G1 X121.539 Y80.430 E19.60782
G1 X121.575 Y77.488 E19.70353
G1 X122.044 Y77.439 E19.71887
G1 X122.530 Y79.682 E19.79353
G1 X123.257 Y82.318 E19.88251
G1 X123.303 Y82.579 E19.89112
G1 X123.163 Y84.806 E19.96371
G1 X122.174 Y87.263 E20.04990
G1 X120.480 Y88.843 E20.12526
G1 X117.212 Y90.569 E20.24549
G1 X113.248 Y91.523 E20.37815
G1 X112.186 Y92.151 E20.41830
G1 X111.523 Y92.392 E20.44124
G1 X111.541 Y93.892 E20.49005
G1 X112.545 Y94.230 E20.52450
G1 X114.449 Y94.506 E20.58711
G1 X118.094 Y95.602 E20.71095
G1 X120.868 Y96.755 E20.80869
G1 X123.119 Y97.936 E20.89139
G1 X123.373 Y98.047 E20.90039
G1 X125.704 Y99.615 E20.99181
G1 X125.906 Y99.800 E21.00071
G1 X127.771 Y101.581 E21.08461
G1 X129.512 Y103.783 E21.17594
G1 X130.049 Y104.390 E21.20230
G1 X129.690 Y104.740 E21.21862
G1 X128.928 Y104.031 E21.25248
G1 X127.011 Y102.042 E21.34238
G1 X125.534 Y100.657 E21.40823
G1 X123.851 Y99.851 E21.46896
G1 X121.367 Y99.114 E21.55326
G1 X118.568 Y98.683 E21.64538
G1 X115.030 Y98.729 E21.76051
G1 X114.501 Y98.721 E21.77773
G1 X112.890 Y99.215 E21.83254
G1 X112.385 Y99.308 E21.84924
G1 X111.839 Y99.881 E21.87501
G1 X110.732 Y100.698 E21.91976
G1 X111.750 Y101.446 E21.96086
G1 X112.105 Y102.036 E21.98327
G1 X113.119 Y102.628 E22.02146
G1 X115.772 Y104.286 E22.12326
G1 X120.684 Y107.407 E22.31259
G1 X123.475 Y110.250 E22.44222
G1 X124.336 Y112.785 E22.52933
G1 X124.051 Y116.324 E22.64484
G1 X122.948 Y119.199 E22.74502
G1 X121.849 Y122.305 E22.85221
G1 X121.682 Y125.367 E22.95199
G1 X121.917 Y126.398 E22.98639
G1 X121.438 Y126.534 E23.00257
G1 X120.999 Y125.257 E23.04651
G1 X121.059 Y122.318 E23.14213
G1 X121.681 Y119.321 E23.24172
G1 X122.531 Y116.239 E23.34574
G1 X122.731 Y112.517 E23.46700
G1 X121.560 Y110.016 E23.55686
G1 X119.307 Y108.452 E23.64609
G1 X117.582 Y107.853 E23.70549
G1 X117.252 Y107.800 E23.71637
G1 X115.193 Y107.670 E23.78349
G1 X113.024 Y108.020 E23.85500
G1 X112.573 Y108.029 E23.86966
G1 X112.301 Y108.269 E23.88147
G1 X109.170 Y110.004 E23.99790
G1 X108.500 Y112.112 E24.06987
G1 X107.391 Y114.755 E24.16314
G1 X107.365 Y114.868 E24.16691
G1 X106.395 Y116.898 E24.24011
G1 X105.314 Y117.801 E24.28594
G1 X103.977 Y118.373 E24.33324
G1 X103.060 Y118.641 E24.36432
G1 X100.923 Y118.921 E24.43443
G1 X100.241 Y118.980 E24.45670
G1 X100.645 Y119.605 F7800.000
G1 X99.831 Y121.902 E24.53600 F378.000
G1 X99.682 Y122.225 E24.54758
G1 X99.119 Y123.942 E24.60636
G1 X99.185 Y124.324 E24.61899
G1 X99.284 Y126.280 E24.68269
G1 X100.308 Y128.619 E24.76577
G1 X101.372 Y130.116 E24.82554
G1 X103.405 Y131.416 E24.90405
G1 X103.687 Y131.635 E24.91564
G1 X105.795 Y133.449 E25.00613
G1 X105.941 Y133.554 E25.01199
G1 X107.044 Y135.841 E25.09462
G1 X107.354 Y138.277 E25.17448
G1 X106.823 Y141.836 E25.29155
G1 X104.827 Y144.378 E25.39671
G1 X102.696 Y145.838 E25.48074
G1 X100.115 Y146.333 E25.56626
G1 X99.644 Y146.217 E25.58204
G1 X97.229 Y145.546 E25.66360
G1 X95.788 Y144.465 E25.72219
G1 X94.753 Y143.070 E25.77871
G1 X94.185 Y141.294 E25.83939
G1 X94.099 Y139.002 E25.91400
G1 X94.972 Y137.230 E25.97828
G1 X96.741 Y135.795 E26.05238
G1 X97.179 Y135.726 E26.06683
G1 X98.374 Y135.612 E26.10589
G1 X98.473 Y136.069 E26.12110
G1 X97.602 Y136.366 E26.15104
G1 X97.143 Y136.502 E26.16661
G1 X95.882 Y137.940 E26.22883
G1 X95.736 Y138.338 E26.24261
G1 X95.196 Y139.510 E26.28462
G1 X95.249 Y141.264 E26.34170
G1 X95.675 Y142.105 E26.37237
G1 X95.779 Y142.357 E26.38125
G1 X96.754 Y143.556 E26.43153
G1 X98.203 Y144.394 E26.48601
G1 X100.177 Y144.805 E26.55160
G1 X102.390 Y144.400 E26.62481
G1 X104.376 Y143.024 E26.70341
G1 X105.480 Y140.680 E26.78770
G1 X105.540 Y138.364 E26.86307
G1 X105.154 Y136.905 E26.91217
G1 X103.997 Y135.462 E26.97236
G1 X101.919 Y133.646 E27.06214
G1 X99.838 Y132.532 E27.13893
G1 X99.543 Y132.284 E27.15148
G1 X97.535 Y130.833 E27.23208
G1 X95.976 Y128.849 E27.31417
G1 X94.640 Y126.528 E27.40131
G1 X93.899 Y124.103 E27.48381
G1 X93.687 Y120.520 E27.60057
G1 X94.142 Y117.808 E27.69005
G1 X93.844 Y117.541 E27.70307
G1 X93.160 Y117.143 E27.72882
G1 X92.010 Y115.077 E27.80575
G1 X91.134 Y111.823 E27.91540
G1 X90.240 Y110.428 E27.96928
G1 X87.319 Y108.810 E28.07795
G1 X87.173 Y108.681 E28.08428
G1 X86.917 Y108.675 E28.09261
G1 X84.777 Y108.331 E28.16310
G1 X82.821 Y108.454 E28.22689
G1 X82.579 Y108.493 E28.23486
G1 X80.995 Y109.042 E28.28942
G1 X78.958 Y110.460 E28.37015
G1 X77.934 Y112.651 E28.44885
G1 X78.121 Y116.130 E28.56220
G1 X78.957 Y119.165 E28.66461
G1 X79.597 Y122.247 E28.76703
G1 X79.661 Y125.359 E28.86831
G1 X79.055 Y127.129 E28.92915
G1 X78.095 Y128.791 E28.99160
G1 X76.196 Y130.480 E29.07429
G1 X74.088 Y131.503 E29.15053
G1 X72.273 Y131.563 E29.20960
G1 X70.087 Y131.176 E29.28185
G1 X68.074 Y129.888 E29.35959
G1 X66.996 Y128.527 E29.41606
G1 X66.166 Y126.411 E29.49004
G1 X66.183 Y124.489 E29.55256
G1 X66.723 Y123.096 E29.60116
G1 X66.839 Y122.808 E29.61127
G1 X68.265 Y121.035 E29.68529
G1 X69.829 Y120.334 E29.74106
G1 X70.178 Y120.157 E29.75379
G1 X72.655 Y120.076 E29.83444
G1 X73.229 Y120.366 E29.85535
G1 X73.045 Y120.807 E29.87090
G1 X72.558 Y120.657 E29.88750
G1 X70.479 Y120.997 E29.95604
G1 X69.190 Y121.591 E30.00221
G1 X68.778 Y121.807 E30.01737
G1 X67.632 Y123.205 E30.07618
G1 X67.326 Y124.365 E30.11519
G1 X67.270 Y125.675 E30.15787
G1 X67.270 Y126.087 E30.17126
G1 X67.895 Y127.828 E30.23144
G1 X68.763 Y128.896 E30.27622
G1 X70.166 Y129.911 E30.33257
G1 X72.110 Y130.332 E30.39729
