; generated by Slic3r 1.2.0-dev on 2014-06-17 at 14:40:30

; external perimeters extrusion width = 0.50mm
; perimeters extrusion width = 0.52mm
; infill extrusion width = 0.52mm
; solid infill extrusion width = 0.52mm
; top infill extrusion width = 0.52mm

G21 ; set units to millimeters
M107
M104 S200 ; set temperature
G28 ; home all axes
G1 Z5 F5000 ; lift nozzle

M109 S200 ; wait for temperature to be reached
G90 ; use absolute coordinates
G92 E0
M82 ; use absolute distances for extrusion
G1 F1800.000 E-1.00000
G92 E0
G1 Z0.350 F7800.000
G1 X84.277 Y83.573 F7800.000
G1 E1.00000 F1800.000
G1 X84.784 Y83.081 E1.02299 F1080.000
G1 X86.564 Y81.849 E1.09342
G1 X86.728 Y81.771 E1.09931
G1 X88.377 Y81.240 E1.15570
G1 X90.578 Y80.877 E1.22827
G1 X91.059 Y80.847 E1.24394
G1 X92.283 Y80.891 E1.28379
G1 X112.092 Y83.591 E1.93424
G1 X112.999 Y83.902 E1.96543
G1 X115.565 Y85.037 E2.05673
G1 X115.776 Y85.158 E2.06464
G1 X117.889 Y87.084 E2.15765
G1 X118.735 Y88.347 E2.20713
G1 X119.184 Y89.153 E2.23713
G1 X119.744 Y90.497 E2.28453
G1 X120.329 Y92.684 E2.35817
G1 X120.530 Y93.832 E2.39609
G1 X120.694 Y96.283 E2.47601
G1 X120.662 Y96.894 E2.49592
G1 X120.376 Y99.647 E2.58596
G1 X119.501 Y104.294 E2.73982
G1 X119.296 Y105.183 E2.76949
G1 X118.879 Y106.597 E2.81747
G1 X118.491 Y107.688 E2.85515
G1 X117.721 Y109.483 E2.91869
G1 X117.288 Y110.200 E2.94594
G1 X116.648 Y111.129 E2.98263
G1 X116.068 Y111.915 E3.01444
G1 X114.305 Y114.017 E3.10369
G1 X113.750 Y114.580 E3.12941
G1 X112.063 Y116.169 E3.20479
G1 X110.513 Y117.358 E3.26836
G1 X103.881 Y121.813 E3.52829
G1 X102.577 Y122.420 E3.57509
G1 X101.031 Y122.953 E3.62829
G1 X99.915 Y123.207 E3.66553
G1 X98.460 Y123.373 E3.71319
G1 X96.874 Y123.283 E3.76486
G1 X94.911 Y122.924 E3.82980
G1 X93.443 Y122.495 E3.87954
G1 X91.945 Y121.913 E3.93185
G1 X90.805 Y121.314 E3.97374
G1 X89.846 Y120.610 E4.01244
G1 X88.378 Y119.251 E4.07753
G1 X86.994 Y117.619 E4.14714
G1 X85.120 Y114.726 E4.25930
G1 X83.971 Y112.865 E4.33046
G1 X83.575 Y112.130 E4.35760
G1 X82.695 Y110.343 E4.42243
G1 X82.157 Y109.062 E4.46763
G1 X81.590 Y107.253 E4.52929
G1 X81.084 Y105.374 E4.59264
G1 X80.475 Y102.224 E4.69700
G1 X80.225 Y99.760 E4.77757
G1 X80.209 Y99.155 E4.79729
G1 X80.219 Y96.952 E4.86896
G1 X80.241 Y96.378 E4.88765
G1 X80.482 Y93.202 E4.99126
G1 X80.547 Y92.619 E5.01036
G1 X80.648 Y92.011 E5.03039
G1 X80.960 Y90.491 E5.08090
G1 X81.189 Y89.545 E5.11255
G1 X81.448 Y88.676 E5.14207
G1 X82.016 Y87.046 E5.19821
G1 X82.462 Y86.056 E5.23353
G1 X82.829 Y85.444 E5.25677
G1 X83.337 Y84.690 E5.28636
G1 X84.070 Y83.786 E5.32422
G1 X84.224 Y83.627 E5.33143
G1 F1800.000 E4.33143
G92 E0
G1 X108.183 Y108.369 F7800.000
G1 E1.00000 F1800.000
G1 X106.870 Y109.666 E1.06005 F540.000
G1 X105.817 Y110.483 E1.10343
G1 X105.348 Y110.661 E1.11974
G1 X103.994 Y111.492 E1.17143
G1 X102.515 Y112.357 E1.22718
G1 X101.629 Y113.208 E1.26717
G1 X100.912 Y113.672 E1.29493
G1 X100.171 Y114.358 E1.32779
G1 X99.591 Y114.609 E1.34834
G1 X99.347 Y114.750 E1.35753
G1 X99.053 Y114.869 E1.36784
G1 X98.281 Y115.045 E1.39359
G1 X98.117 Y115.039 E1.39893
G1 X97.318 Y114.892 E1.42538
G1 X96.936 Y114.852 E1.43785
G1 X96.459 Y114.724 E1.45393
G1 X96.255 Y114.604 E1.46162
G1 X95.235 Y114.268 E1.49656
G1 X94.516 Y113.631 E1.52783
G1 X93.806 Y112.838 E1.56245
G1 X92.571 Y110.890 E1.63749
G1 X92.148 Y110.269 E1.66194
G1 X91.242 Y108.818 E1.71759
G1 X90.736 Y107.835 E1.75358
G1 X90.383 Y107.030 E1.78216
G1 X90.152 Y106.656 E1.79647
G1 X90.040 Y105.736 E1.82663
G1 X89.663 Y105.122 E1.85006
G1 X89.579 Y104.921 E1.85716
G1 X89.229 Y103.664 E1.89962
G1 X89.066 Y102.795 E1.92839
G1 X89.070 Y102.703 E1.93138
G1 X88.744 Y101.289 E1.97856
G1 X88.702 Y100.935 E1.99019
G1 X88.704 Y100.633 E2.00001
G1 X88.539 Y99.411 E2.04011
G1 X88.532 Y99.181 E2.04761
G1 X88.568 Y98.174 E2.08038
G1 X88.651 Y97.678 E2.09674
G1 X88.540 Y96.985 E2.11959
G1 X88.774 Y93.901 E2.22021
G1 X88.812 Y93.619 E2.22947
G1 X89.197 Y91.808 E2.28970
G1 X89.332 Y91.339 E2.30559
G1 X89.805 Y89.982 E2.35234
G1 X90.157 Y89.460 E2.37281
G1 X90.255 Y89.365 E2.37726
G1 X91.287 Y89.169 E2.41142
G1 X91.375 Y89.164 E2.41430
G1 X91.819 Y89.221 E2.42887
G1 X93.113 Y89.670 E2.47344
G1 X93.433 Y89.872 E2.48575
G1 X94.256 Y90.493 E2.51928
G1 X94.228 Y90.727 E2.52696
G1 X95.113 Y91.568 E2.56670
G1 X95.325 Y91.935 E2.58047
G1 X96.080 Y92.458 E2.61035
G1 X96.871 Y92.847 E2.63903
G1 X97.014 Y92.873 E2.64375
G1 X97.381 Y92.989 E2.65628
G1 X98.406 Y93.066 E2.68974
G1 X98.716 Y93.120 E2.69996
G1 X99.323 Y93.302 E2.72057
G1 X100.039 Y93.211 E2.74407
G1 X100.196 Y93.246 E2.74929
G1 X101.526 Y93.403 E2.79288
G1 X102.776 Y93.692 E2.83461
G1 X103.089 Y93.684 E2.84479
G1 X103.263 Y93.733 E2.85069
G1 X104.128 Y93.811 E2.87895
G1 X104.806 Y93.760 E2.90106
G1 X105.007 Y93.654 E2.90843
G1 X105.356 Y93.603 E2.91991
G1 X106.105 Y93.220 E2.94729
G1 X106.620 Y92.818 E2.96856
G1 X107.227 Y92.060 E3.00012
G1 X107.601 Y91.786 E3.01523
G1 X108.512 Y91.638 E3.04525
G1 X108.828 Y91.619 E3.05556
G1 X109.655 Y91.679 E3.08253
G1 X109.950 Y91.658 E3.09214
G1 X111.314 Y92.226 E3.14021
G1 X111.524 Y92.501 E3.15149
G1 X111.781 Y92.962 E3.16867
G1 X111.932 Y93.664 E3.19203
G1 X112.243 Y94.696 E3.22708
G1 X112.256 Y95.221 E3.24416
G1 X112.372 Y96.141 E3.27436
G1 X112.219 Y97.237 E3.31035
G1 X112.178 Y98.215 E3.34221
G1 X111.525 Y101.606 E3.45454
G1 X111.346 Y102.636 E3.48857
G1 X111.259 Y103.020 E3.50137
G1 X110.962 Y104.030 E3.53562
G1 X110.905 Y104.144 E3.53977
G1 X110.736 Y104.672 E3.55781
G1 X110.386 Y105.552 E3.58861
G1 X109.556 Y106.729 E3.63548
G1 X108.220 Y108.304 E3.70268
G1 X108.762 Y108.682 F7800.000
G1 X108.727 Y108.754 E3.70529 F540.000
G1 X108.386 Y109.106 E3.72121
G1 X107.704 Y109.750 E3.75173
G1 X107.309 Y110.157 E3.77019
G1 X106.183 Y111.031 E3.81659
G1 X106.054 Y111.104 E3.82139
G1 X105.634 Y111.256 E3.83592
G1 X104.327 Y112.059 E3.88585
G1 X102.914 Y112.885 E3.93909
G1 X102.020 Y113.738 E3.97928
G1 X101.313 Y114.195 E4.00667
G1 X100.519 Y114.923 E4.04174
G1 X99.887 Y115.197 E4.06412
G1 X99.636 Y115.342 E4.07358
G1 X99.250 Y115.498 E4.08711
G1 X98.343 Y115.705 E4.11739
G1 X98.025 Y115.693 E4.12775
G1 X97.227 Y115.543 E4.15416
G1 X96.816 Y115.500 E4.16759
G1 X96.203 Y115.336 E4.18824
G1 X95.987 Y115.208 E4.19641
G1 X95.161 Y114.947 E4.22459
G1 X94.930 Y114.853 E4.23271
G1 X94.835 Y114.791 E4.23639
G1 X94.051 Y114.097 E4.27046
G1 X93.287 Y113.243 E4.30774
G1 X92.018 Y111.245 E4.38475
G1 X91.603 Y110.637 E4.40870
G1 X90.675 Y109.150 E4.46572
G1 X90.441 Y108.724 E4.48156
G1 X90.140 Y108.112 E4.50374
G1 X89.799 Y107.336 E4.53130
G1 X89.592 Y106.999 E4.54420
G1 X89.502 Y106.810 E4.55099
G1 X89.492 Y106.603 E4.55774
G1 X89.408 Y105.965 E4.57868
G1 X89.041 Y105.358 E4.60174
G1 X88.957 Y105.136 E4.60946
G1 X88.588 Y103.812 E4.65418
G1 X88.406 Y102.842 E4.68628
G1 X88.409 Y102.776 E4.68846
G1 X88.095 Y101.400 E4.73437
G1 X88.045 Y100.971 E4.74842
G1 X88.047 Y100.681 E4.75787
G1 X87.883 Y99.461 E4.79790
G1 X87.874 Y99.180 E4.80704
G1 X87.913 Y98.108 E4.84195
G1 X87.985 Y97.676 E4.85620
G1 X87.883 Y97.036 E4.87728
G1 X87.885 Y96.929 E4.88076
G1 X88.125 Y93.786 E4.98332
G1 X88.164 Y93.509 E4.99242
G1 X88.429 Y92.210 E5.03556
G1 X88.560 Y91.644 E5.05446
G1 X88.707 Y91.136 E5.07165
G1 X89.222 Y89.671 E5.12218
G1 X89.642 Y89.048 E5.14663
G1 X89.947 Y88.749 E5.16052
G1 X91.202 Y88.516 E5.20204
G1 X91.398 Y88.504 E5.20846
G1 X91.970 Y88.578 E5.22721
G1 X93.380 Y89.067 E5.27578
G1 X93.811 Y89.334 E5.29227
G1 X94.953 Y90.195 E5.33880
G1 X94.920 Y90.478 E5.34806
G1 X95.637 Y91.161 E5.38028
G1 X95.821 Y91.479 E5.39225
G1 X96.413 Y91.889 E5.41568
G1 X97.078 Y92.217 E5.43981
G1 X97.506 Y92.339 E5.45430
G1 X98.485 Y92.413 E5.48624
G1 X98.868 Y92.479 E5.49886
G1 X99.378 Y92.633 E5.51621
G1 X100.108 Y92.552 E5.54009
G1 X100.296 Y92.595 E5.54637
G1 X101.641 Y92.755 E5.59045
G1 X102.843 Y93.033 E5.63056
G1 X103.172 Y93.025 E5.64129
G1 X103.383 Y93.084 E5.64842
G1 X104.132 Y93.151 E5.67288
G1 X104.621 Y93.114 E5.68883
G1 X104.800 Y93.020 E5.69542
G1 X105.153 Y92.968 E5.70703
G1 X105.750 Y92.664 E5.72884
G1 X106.157 Y92.345 E5.74565
G1 X106.791 Y91.542 E5.77895
G1 X106.913 Y91.475 E5.78349
G1 X107.340 Y91.163 E5.80070
G1 X108.440 Y90.984 E5.83694
G1 X108.833 Y90.961 E5.84976
G1 X109.655 Y91.020 E5.87655
G1 X110.074 Y90.990 E5.89022
G1 X111.741 Y91.690 E5.94905
G1 X112.075 Y92.140 E5.96729
G1 X112.403 Y92.729 E5.98923
G1 X112.568 Y93.499 E6.01487
G1 X112.897 Y94.580 E6.05161
G1 X112.912 Y95.171 E6.07086
G1 X113.031 Y96.115 E6.10181
G1 X112.875 Y97.293 E6.14046
G1 X112.832 Y98.295 E6.17310
G1 X111.911 Y103.132 E6.33331
G1 X111.576 Y104.272 E6.37197
G1 X111.515 Y104.394 E6.37638
G1 X111.355 Y104.893 E6.39346
G1 X110.947 Y105.897 E6.42869
G1 X110.097 Y107.107 E6.47680
G1 X108.810 Y108.625 E6.54154
G1 X109.317 Y109.044 F7800.000
G1 X109.268 Y109.144 E6.54518 F378.000
G1 X107.749 Y110.648 E6.61473
G1 X106.548 Y111.579 E6.66416
G1 X106.331 Y111.703 E6.67230
G1 X105.921 Y111.851 E6.68648
G1 X104.659 Y112.626 E6.73464
G1 X103.313 Y113.413 E6.78538
G1 X102.471 Y114.221 E6.82335
G1 X101.715 Y114.718 E6.85279
G1 X100.980 Y115.399 E6.88540
G1 X100.848 Y115.496 E6.89074
G1 X100.184 Y115.784 E6.91429
G1 X99.925 Y115.934 E6.92401
G1 X99.448 Y116.127 E6.94075
G1 X98.404 Y116.365 E6.97558
G1 X97.996 Y116.363 E6.98885
G1 X97.742 Y116.300 E6.99736
G1 X97.136 Y116.194 E7.01739
G1 X96.696 Y116.148 E7.03178
G1 X95.947 Y115.947 E7.05700
G1 X95.718 Y115.813 E7.06566
G1 X94.937 Y115.566 E7.09229
G1 X94.622 Y115.438 E7.10336
G1 X94.437 Y115.316 E7.11057
G1 X93.586 Y114.563 E7.14753
G1 X92.768 Y113.649 E7.18743
G1 X91.465 Y111.600 E7.26645
G1 X91.058 Y111.005 E7.28990
G1 X90.108 Y109.483 E7.34828
G1 X89.858 Y109.027 E7.36520
G1 X89.544 Y108.389 E7.38832
G1 X89.216 Y107.642 E7.41488
G1 X89.014 Y107.313 E7.42744
G1 X88.852 Y106.974 E7.43967
G1 X88.837 Y106.662 E7.44983
G1 X88.775 Y106.194 E7.46518
G1 X88.426 Y105.607 E7.48740
G1 X88.335 Y105.352 E7.49621
G1 X87.947 Y103.961 E7.54318
G1 X87.749 Y102.849 E7.57996
G1 X87.446 Y101.511 E7.62458
G1 X87.388 Y101.007 E7.64107
G1 X87.389 Y100.729 E7.65013
G1 X87.228 Y99.511 E7.69010
G1 X87.217 Y99.180 E7.70089
G1 X87.258 Y98.042 E7.73794
G1 X87.319 Y97.674 E7.75008
G1 X87.225 Y97.081 E7.76961
G1 X87.229 Y96.897 E7.77559
G1 X87.476 Y93.672 E7.88081
G1 X87.516 Y93.400 E7.88978
G1 X87.787 Y92.070 E7.93394
G1 X87.924 Y91.480 E7.95364
G1 X88.082 Y90.934 E7.97213
G1 X88.511 Y89.675 E8.01542
G1 X88.634 Y89.373 E8.02600
G1 X89.130 Y88.633 E8.05499
G1 X89.639 Y88.133 E8.07821
G1 X91.114 Y87.863 E8.12701
G1 X91.422 Y87.845 E8.13703
G1 X92.122 Y87.935 E8.15998
G1 X93.662 Y88.470 E8.21303
G1 X94.189 Y88.797 E8.23322
G1 X95.651 Y89.898 E8.29275
G1 X95.611 Y90.229 E8.30360
G1 X96.162 Y90.757 E8.32843
G1 X96.316 Y91.024 E8.33846
G1 X96.746 Y91.321 E8.35544
G1 X97.286 Y91.587 E8.37503
G1 X97.632 Y91.690 E8.38677
G1 X98.564 Y91.760 E8.41720
G1 X99.019 Y91.838 E8.43221
G1 X99.434 Y91.963 E8.44631
G1 X99.937 Y91.899 E8.46281
G1 X100.174 Y91.894 E8.47054
G1 X100.397 Y91.944 E8.47795
G1 X101.756 Y92.108 E8.52251
G1 X102.910 Y92.374 E8.56102
G1 X103.255 Y92.365 E8.57226
G1 X103.503 Y92.435 E8.58065
G1 X104.136 Y92.492 E8.60132
G1 X104.436 Y92.469 E8.61111
G1 X104.595 Y92.386 E8.61695
G1 X104.951 Y92.334 E8.62865
G1 X105.395 Y92.107 E8.64489
G1 X105.695 Y91.873 E8.65724
G1 X106.102 Y91.372 E8.67827
G1 X106.347 Y91.035 E8.69181
G1 X106.561 Y90.919 E8.69976
G1 X107.069 Y90.548 E8.72021
G1 X108.368 Y90.330 E8.76305
G1 X108.838 Y90.302 E8.77839
G1 X109.654 Y90.361 E8.80500
G1 X110.154 Y90.325 E8.82132
G1 X110.292 Y90.366 E8.82599
G1 X112.085 Y91.120 E8.88927
G1 X112.208 Y91.196 E8.89399
G1 X112.325 Y91.385 E8.90124
G1 X112.626 Y91.778 E8.91733
G1 X113.025 Y92.495 E8.94403
G1 X113.205 Y93.334 E8.97195
G1 X113.549 Y94.462 E9.01032
G1 X113.568 Y95.122 E9.03180
G1 X113.689 Y96.085 E9.06336
G1 X113.684 Y96.247 E9.06864
G1 X113.531 Y97.349 E9.10484
G1 X113.486 Y98.374 E9.13823
G1 X112.563 Y103.245 E9.29953
G1 X112.195 Y104.494 E9.34189
G1 X112.125 Y104.643 E9.34726
G1 X111.974 Y105.115 E9.36337
G1 X111.577 Y106.115 E9.39838
G1 X111.506 Y106.243 E9.40312
G1 X110.638 Y107.485 E9.45242
G1 X109.365 Y108.986 E9.51648
G1 X109.205 Y109.042 F7800.000
G1 X96.864 Y114.360 F7800.000
G1 X92.544 Y110.041 E9.71521 F1080.000
G1 X91.207 Y107.759 F7800.000
G1 X98.002 Y114.554 E10.02786 F1080.000
G1 X98.842 Y114.449 E10.05541
G1 X90.551 Y106.158 E10.43688
G1 X89.973 Y104.635 F7800.000
G1 X99.492 Y114.154 E10.87486 F1080.000
G1 X100.091 Y113.809 E10.89737
G1 X89.635 Y103.353 E11.37849
G1 X89.421 Y102.194 E11.41682
G1 X100.582 Y113.355 E11.93037
G1 X101.147 Y112.976 E11.95252
G1 X89.169 Y100.998 E12.50366
G1 X89.073 Y99.958 E12.53764
G1 X101.660 Y112.545 E13.11680
G1 X102.142 Y112.082 E13.13853
G1 X88.997 Y98.937 E13.74336
G1 X89.052 Y98.047 E13.77236
G1 X102.716 Y111.711 E14.40104
G1 X103.312 Y111.363 E14.42351
G1 X89.015 Y97.066 E15.08131
G1 X89.060 Y96.166 E15.11063
G1 X103.905 Y111.011 E15.79370
G1 X104.490 Y110.652 E15.81604
G1 X89.126 Y95.288 E16.52297
G1 X89.193 Y94.410 E16.55162
G1 X105.075 Y110.292 E17.28241
G1 X105.713 Y109.986 E17.30544
G1 X89.291 Y93.563 E18.06107
G1 X89.456 Y92.784 E18.08699
G1 X106.245 Y109.573 E18.85948
G1 X106.750 Y109.134 E18.88126
G1 X89.622 Y92.005 E19.66939
G1 X89.837 Y91.276 E19.69412
G1 X107.225 Y108.664 E20.49414
G1 X107.697 Y108.191 E20.51586
G1 X90.081 Y90.576 E21.32639
G1 X90.386 Y89.936 E21.34944
G1 X108.142 Y107.691 E22.16639
G1 X108.575 Y107.180 E22.18819
G1 X91.076 Y89.681 E22.99336
G1 X92.162 Y89.823 E23.02901
G1 X109.009 Y106.669 E23.80414
G1 X109.423 Y106.139 E23.82604
G1 X96.416 Y93.132 E24.42452
G1 X97.699 Y93.470 E24.46770
G1 X109.811 Y105.583 E25.02501
G1 X110.131 Y104.958 E25.04784
G1 X98.792 Y93.619 E25.56956
G1 X99.817 Y93.699 E25.60300
G1 X110.386 Y104.268 E26.08930
G1 X110.624 Y103.562 E26.11355
G1 X100.844 Y93.782 E26.56354
G1 X101.984 Y93.977 E26.60116
G1 X110.834 Y102.828 E27.00841
G1 X110.987 Y102.036 E27.03465
G1 X103.117 Y94.166 E27.39674
G1 X104.161 Y94.266 E27.43086
G1 X111.131 Y101.236 E27.75156
G1 X111.284 Y100.444 E27.77780
G1 X105.009 Y94.169 E28.06653
G1 X105.716 Y93.931 E28.09080
G1 X111.436 Y99.652 E28.35401
G1 X111.589 Y98.860 E28.38025
G1 X106.341 Y93.612 E28.62171
G1 X106.873 Y93.199 E28.64361
G1 X111.728 Y98.054 E28.86700
G1 X111.770 Y97.152 E28.89639
G1 X107.308 Y92.689 E29.10173
G1 X107.782 Y92.219 E29.12346
G1 X111.886 Y96.323 E29.31227
G1 X111.806 Y95.298 E29.34571
G1 X108.598 Y92.090 E29.49333
G1 X109.583 Y92.131 E29.52541
G1 X111.601 Y94.149 E29.61829
G1 X111.120 Y92.723 F7800.000
G1 X110.976 Y92.579 E29.62492 F1080.000
G1 X94.597 Y113.037 F7800.000
G1 X95.085 Y113.526 E29.64740 F1080.000
M106 S255
G1 F1800.000 E28.64740
G92 E0
G1 Z0.750 F7800.000
G1 X109.007 Y108.590 F7800.000
G1 E1.00000 F1800.000
G1 X108.471 Y109.268 E1.02543 F1530.085
G1 X106.612 Y110.851 E1.09723
G1 X104.257 Y112.207 E1.17712
G1 X102.935 Y113.014 E1.22267
G1 X101.848 Y114.037 E1.26657
G1 X101.526 Y114.300 E1.27879
G1 X100.881 Y114.695 E1.30102
G1 X100.663 Y114.972 E1.31139
G1 X100.463 Y115.118 E1.31867
G1 X99.839 Y115.396 E1.33877
G1 X98.922 Y115.927 E1.36992
G1 X97.755 Y116.121 E1.40470
G1 X97.472 Y116.103 E1.41305
G1 X96.883 Y116.002 E1.43060
G1 X96.256 Y115.932 E1.44917
G1 X95.963 Y115.785 E1.45881
G1 X95.605 Y115.566 E1.47116
G1 X95.093 Y115.292 E1.48823
G1 X93.820 Y114.180 E1.53792
G1 X93.264 Y113.365 E1.56696
G1 X91.417 Y110.502 E1.66713
G1 X90.698 Y109.516 E1.70301
G1 X89.981 Y108.149 E1.74841
G1 X89.673 Y107.511 E1.76922
G1 X89.559 Y107.135 E1.78080
G1 X89.318 Y106.688 E1.79570
G1 X89.204 Y106.361 E1.80591
G1 X89.102 Y105.830 E1.82179
G1 X88.960 Y105.487 E1.83272
G1 X88.587 Y104.307 E1.86909
G1 X88.362 Y103.381 E1.89712
G1 X88.241 Y102.637 E1.91928
G1 X87.950 Y101.520 E1.95324
G1 X87.926 Y101.082 E1.96613
G1 X87.929 Y100.638 E1.97919
G1 X87.812 Y99.870 E2.00203
G1 X87.768 Y99.060 E2.02589
G1 X87.755 Y97.794 E2.06312
G1 X87.773 Y96.930 E2.08853
G1 X88.032 Y93.949 E2.17651
G1 X88.120 Y93.612 E2.18676
G1 X88.343 Y91.983 E2.23510
G1 X88.830 Y90.543 E2.27980
G1 X89.103 Y89.872 E2.30112
G1 X89.327 Y89.458 E2.31494
