; generated by Slic3r 1.2.0-dev on 2014-06-13 at 11:52:46

; external perimeters extrusion width = 0.50mm
; perimeters extrusion width = 0.52mm
; infill extrusion width = 0.52mm
; solid infill extrusion width = 0.52mm
; top infill extrusion width = 0.52mm

G21 ; set units to millimeters
M107
M104 S200 ; set temperature
G28 ; home all axes
G1 Z5 F5000 ; lift nozzle

M109 S200 ; wait for temperature to be reached
G90 ; use absolute coordinates
G92 E0
M82 ; use absolute distances for extrusion
G1 F1800.000 E-1.00000
G92 E0
G1 Z0.350 F7800.000
G1 X85.400 Y79.241 F7800.000
G1 E1.00000 F1800.000
G1 X87.154 Y77.755 E1.07480 F1080.000
G1 X89.309 Y76.953 E1.14960
G1 X90.517 Y76.843 E1.18906
G1 X109.483 Y76.843 E1.80614
G1 X111.748 Y77.240 E1.88094
G1 X113.742 Y78.384 E1.95575
G1 X115.229 Y80.138 E2.03055
G1 X116.030 Y82.292 E2.10535
G1 X116.140 Y83.500 E2.14480
G1 X116.057 Y103.516 E2.79602
G1 X114.074 Y115.945 E3.20551
G1 X113.326 Y118.118 E3.28031
G1 X111.882 Y119.908 E3.35511
G1 X109.812 Y121.138 E3.43345
G1 X107.292 Y122.035 E3.52049
G1 X104.739 Y122.661 E3.60601
G1 X102.066 Y123.053 E3.69389
G1 X99.441 Y123.169 E3.77940
G1 X96.743 Y123.032 E3.86727
G1 X94.145 Y122.633 E3.95281
G1 X91.528 Y121.973 E4.04063
G1 X89.649 Y121.313 E4.10540
G1 X87.644 Y120.189 E4.18020
G1 X86.141 Y118.449 E4.25500
G1 X85.235 Y115.737 E4.34804
G1 X83.860 Y102.467 E4.78209
G1 X83.860 Y83.500 E5.39918
G1 X84.257 Y81.236 E5.47398
G1 X85.363 Y79.306 E5.54634
G1 F1800.000 E4.54634
G92 E0
G1 X106.775 Y114.778 F7800.000
G1 E1.00000 F1800.000
G1 X103.585 Y115.597 E1.10717 F378.000
G1 X101.646 Y115.908 E1.17104
G1 X99.686 Y116.016 E1.23490
G1 X97.725 Y115.942 E1.29877
G1 X95.782 Y115.665 E1.36263
G1 X93.872 Y115.210 E1.42650
G1 X92.020 Y114.560 E1.49037
G1 F1800.000 E0.49037
G92 E0
G1 X107.819 Y100.803 F7800.000
G1 E1.00000 F1800.000
G1 X92.181 Y100.803 E1.50880 F540.000
G1 X92.181 Y85.164 E2.01760
G1 X107.819 Y85.164 E2.52641
G1 X107.819 Y100.728 E3.03277
G1 X108.476 Y101.460 F7800.000
G1 X91.524 Y101.460 E3.58432 F540.000
G1 X91.524 Y84.507 E4.13588
G1 X108.476 Y84.507 E4.68744
G1 X108.476 Y101.385 E5.23656
G1 X109.133 Y102.117 F7800.000
G1 X90.867 Y102.117 E5.83087 F378.000
G1 X90.867 Y83.850 E6.42519
G1 X109.133 Y83.850 E7.01950
G1 X109.133 Y102.042 E7.61138
G1 X108.700 Y101.867 F7800.000
G1 X92.637 Y100.306 F7800.000
G1 X92.677 Y100.346 E7.61322 F1080.000
G1 X93.625 Y100.346 E7.64404
G1 X92.637 Y99.359 E7.68948
G1 X92.637 Y98.411 E7.72031
G1 X94.572 Y100.346 E7.80934
G1 X95.520 Y100.346 E7.84016
G1 X92.637 Y97.464 E7.97279
G1 X92.637 Y96.517 E8.00361
G1 X96.467 Y100.346 E8.17983
G1 X97.414 Y100.346 E8.21066
G1 X92.637 Y95.569 E8.43047
G1 X92.637 Y94.622 E8.46130
G1 X98.362 Y100.346 E8.72471
G1 X99.309 Y100.346 E8.75553
G1 X92.637 Y93.674 E9.06254
G1 X92.637 Y92.727 E9.09336
G1 X100.257 Y100.346 E9.44396
G1 X101.204 Y100.346 E9.47479
G1 X92.637 Y91.779 E9.86898
G1 X92.637 Y90.832 E9.89980
G1 X102.152 Y100.346 E10.33759
G1 X103.099 Y100.346 E10.36842
G1 X92.637 Y89.884 E10.84980
G1 X92.637 Y88.937 E10.88063
G1 X104.047 Y100.346 E11.40560
G1 X104.994 Y100.346 E11.43643
G1 X92.637 Y87.989 E12.00500
G1 X92.637 Y87.042 E12.03583
G1 X105.942 Y100.346 E12.64799
G1 X106.889 Y100.346 E12.67882
G1 X92.637 Y86.094 E13.33458
G1 X93.111 Y85.621 E13.35638
G1 X107.363 Y99.873 E14.01214
G1 X107.363 Y98.925 E14.04297
G1 X94.058 Y85.621 E14.65513
G1 X95.006 Y85.621 E14.68596
G1 X107.363 Y97.978 E15.25453
G1 X107.363 Y97.030 E15.28536
G1 X95.953 Y85.621 E15.81033
G1 X96.901 Y85.621 E15.84116
G1 X107.363 Y96.083 E16.32254
G1 X107.363 Y95.135 E16.35337
G1 X97.848 Y85.621 E16.79115
G1 X98.796 Y85.621 E16.82198
G1 X107.363 Y94.188 E17.21617
G1 X107.363 Y93.240 E17.24700
G1 X99.743 Y85.621 E17.59760
G1 X100.691 Y85.621 E17.62842
G1 X107.363 Y92.293 E17.93543
G1 X107.363 Y91.345 E17.96625
G1 X101.638 Y85.621 E18.22966
G1 X102.586 Y85.621 E18.26049
G1 X107.363 Y90.398 E18.48030
G1 X107.363 Y89.451 E18.51113
G1 X103.533 Y85.621 E18.68735
G1 X104.480 Y85.621 E18.71817
G1 X107.363 Y88.503 E18.85080
G1 X107.363 Y87.556 E18.88162
G1 X105.428 Y85.621 E18.97065
G1 X106.375 Y85.621 E19.00148
G1 X107.363 Y86.608 E19.04691
G1 X107.363 Y85.661 E19.07774
G1 X107.323 Y85.621 E19.07958
M106 S255
G1 F1800.000 E18.07958
G92 E0
G1 Z0.750 F7800.000
G1 X95.590 Y115.386 F7800.000
G1 E1.00000 F1800.000
G1 X97.747 Y115.693 E1.06166 F745.714
G1 X99.684 Y115.766 E1.11651
G1 X101.620 Y115.659 E1.17135
G1 X103.534 Y115.353 E1.22620
G1 X105.411 Y114.870 E1.28104
G1 X107.005 Y114.279 E1.32915
G1 X107.179 Y114.748 E1.34329
G1 X105.561 Y115.348 E1.39213
G1 X103.636 Y115.843 E1.44836
G1 X101.673 Y116.157 E1.50460
G1 X99.689 Y116.266 E1.56084
G1 X97.703 Y116.191 E1.61707
G1 X95.735 Y115.912 E1.67331
G1 X93.801 Y115.451 E1.72954
G1 X92.173 Y114.879 E1.77838
G1 X92.339 Y114.407 E1.79252
G1 X93.943 Y114.970 E1.84062
G1 X95.539 Y115.351 E1.88706
G1 X95.760 Y115.856 F7800.000
G1 F1800.000 E0.88706
G92 E0
G1 X91.832 Y101.152 F7800.000
G1 E1.00000 F1800.000
G1 X91.832 Y84.815 E1.48039 F1065.305
G1 X108.168 Y84.815 E1.96078
G1 X108.168 Y101.152 E2.44117
G1 X91.907 Y101.152 E2.91935
G1 X91.312 Y101.672 F7800.000
G1 X91.312 Y84.295 E3.43030 F1065.305
G1 X108.688 Y84.295 E3.94125
G1 X108.688 Y101.672 E4.45219
G1 X91.387 Y101.672 E4.96094
G1 X90.802 Y102.181 F7800.000
G1 X90.802 Y83.786 E5.48143 F745.714
G1 X109.198 Y83.786 E6.00192
G1 X109.198 Y102.181 E6.52241
G1 X90.877 Y102.181 E7.04078
G1 X91.052 Y101.748 F7800.000
G1 X92.188 Y85.212 F7800.000
G1 X92.228 Y85.172 E7.04244 F2130.611
G1 X92.970 Y85.172 E7.06426
G1 X92.188 Y85.954 E7.09679
G1 X92.188 Y86.696 E7.11861
G1 X93.712 Y85.172 E7.18199
G1 X94.455 Y85.172 E7.20381
G1 X92.188 Y87.438 E7.29805
G1 X92.188 Y88.180 E7.31987
G1 X95.197 Y85.172 E7.44497
G1 X95.939 Y85.172 E7.46679
G1 X92.188 Y88.922 E7.62275
G1 X92.188 Y89.664 E7.64457
G1 X96.681 Y85.172 E7.83139
G1 X97.423 Y85.172 E7.85321
G1 X92.188 Y90.406 E8.07089
G1 X92.188 Y91.148 E8.09271
G1 X98.165 Y85.172 E8.34124
G1 X98.907 Y85.172 E8.36306
G1 X92.188 Y91.890 E8.64246
G1 X92.188 Y92.632 E8.66428
G1 X99.649 Y85.172 E8.97453
G1 X100.391 Y85.172 E8.99635
G1 X92.188 Y93.375 E9.33747
G1 X92.188 Y94.117 E9.35929
G1 X101.133 Y85.172 E9.73126
G1 X101.875 Y85.172 E9.75308
G1 X92.188 Y94.859 E10.15591
G1 X92.188 Y95.601 E10.17773
G1 X102.617 Y85.172 E10.61142
G1 X103.359 Y85.172 E10.63324
G1 X92.188 Y96.343 E11.09779
G1 X92.188 Y97.085 E11.11961
G1 X104.101 Y85.172 E11.61502
G1 X104.843 Y85.172 E11.63684
G1 X92.188 Y97.827 E12.16311
G1 X92.188 Y98.569 E12.18493
G1 X105.585 Y85.172 E12.74206
G1 X106.328 Y85.172 E12.76388
G1 X92.188 Y99.311 E13.35186
G1 X92.188 Y100.053 E13.37368
G1 X107.070 Y85.172 E13.99253
G1 X107.792 Y85.192 E14.01377
G1 X92.208 Y100.775 E14.66181
G1 X92.930 Y100.795 E14.68305
G1 X107.812 Y85.914 E15.30189
G1 X107.812 Y86.656 E15.32371
G1 X93.672 Y100.795 E15.91170
G1 X94.415 Y100.795 E15.93352
G1 X107.812 Y87.398 E16.49065
G1 X107.812 Y88.140 E16.51247
G1 X95.157 Y100.795 E17.03873
G1 X95.899 Y100.795 E17.06056
G1 X107.812 Y88.882 E17.55596
G1 X107.812 Y89.624 E17.57778
G1 X96.641 Y100.795 E18.04233
G1 X97.383 Y100.795 E18.06415
G1 X107.812 Y90.366 E18.49784
G1 X107.812 Y91.108 E18.51967
G1 X98.125 Y100.795 E18.92250
G1 X98.867 Y100.795 E18.94432
G1 X107.812 Y91.850 E19.31629
G1 X107.812 Y92.592 E19.33811
G1 X99.609 Y100.795 E19.67922
G1 X100.351 Y100.795 E19.70104
G1 X107.812 Y93.335 E20.01130
G1 X107.812 Y94.077 E20.03312
G1 X101.093 Y100.795 E20.31251
G1 X101.835 Y100.795 E20.33433
G1 X107.812 Y94.819 E20.58287
G1 X107.812 Y95.561 E20.60469
G1 X102.577 Y100.795 E20.82237
G1 X103.319 Y100.795 E20.84419
G1 X107.812 Y96.303 E21.03101
G1 X107.812 Y97.045 E21.05283
G1 X104.061 Y100.795 E21.20878
G1 X104.803 Y100.795 E21.23061
G1 X107.812 Y97.787 E21.35571
G1 X107.812 Y98.529 E21.37753
G1 X105.545 Y100.795 E21.47177
G1 X106.288 Y100.795 E21.49359
G1 X107.812 Y99.271 E21.55697
G1 X107.812 Y100.013 E21.57879
G1 X107.030 Y100.795 E21.61131
G1 X107.772 Y100.795 E21.63313
G1 X107.812 Y100.755 E21.63480
G1 F1800.000 E20.63480
G92 E0
G1 Z1.150 F7800.000
G1 X92.173 Y114.879 F7800.000
G1 E1.00000 F1800.000
G1 X92.339 Y114.407 E1.01415 F742.537
G1 X93.943 Y114.970 E1.06225
G1 X95.828 Y115.420 E1.11709
G1 X97.747 Y115.693 E1.17194
G1 X99.684 Y115.766 E1.22678
G1 X101.620 Y115.659 E1.28163
G1 X103.534 Y115.353 E1.33648
G1 X105.411 Y114.870 E1.39132
G1 X107.005 Y114.279 E1.43942
G1 X107.179 Y114.748 E1.45357
G1 X105.561 Y115.348 E1.50241
G1 X103.636 Y115.843 E1.55864
G1 X101.673 Y116.157 E1.61488
G1 X99.689 Y116.266 E1.67111
G1 X97.703 Y116.191 E1.72735
G1 X95.735 Y115.912 E1.78359
G1 X93.801 Y115.451 E1.83982
G1 X92.244 Y114.904 E1.88653
G1 X92.552 Y114.553 F7800.000
G1 F1800.000 E0.88653
G92 E0
G1 X91.870 Y101.114 F7800.000
G1 E1.00000 F1800.000
G1 X91.870 Y84.853 E1.47816 F1060.766
G1 X108.130 Y84.853 E1.95632
G1 X108.130 Y101.114 E2.43447
G1 X91.945 Y101.114 E2.91043
G1 X91.350 Y101.634 F7800.000
G1 X91.350 Y84.333 E3.41914 F1060.766
G1 X108.650 Y84.333 E3.92786
G1 X108.650 Y101.634 E4.43658
G1 X91.425 Y101.634 E4.94309
G1 X90.840 Y102.143 F7800.000
G1 X90.840 Y83.824 E5.46144 F742.537
G1 X109.160 Y83.824 E5.97978
G1 X109.160 Y102.143 E6.49813
G1 X90.915 Y102.143 E7.01435
G1 X91.090 Y101.710 F7800.000
G1 X92.266 Y100.757 F7800.000
G1 X92.226 Y100.717 E7.01601 F2121.533
G1 X92.226 Y99.979 E7.03773
G1 X93.005 Y100.757 E7.07010
G1 X93.743 Y100.757 E7.09181
G1 X92.226 Y99.240 E7.15489
G1 X92.226 Y98.502 E7.17661
G1 X94.482 Y100.757 E7.27040
G1 X95.220 Y100.757 E7.29211
G1 X92.226 Y97.763 E7.41661
G1 X92.226 Y97.025 E7.43833
G1 X95.959 Y100.757 E7.59353
G1 X96.697 Y100.757 E7.61525
G1 X92.226 Y96.287 E7.80116
G1 X92.226 Y95.548 E7.82288
G1 X97.435 Y100.757 E8.03950
G1 X98.174 Y100.757 E8.06122
G1 X92.226 Y94.810 E8.30855
G1 X92.226 Y94.071 E8.33027
G1 X98.912 Y100.757 E8.60831
G1 X99.651 Y100.757 E8.63002
G1 X92.226 Y93.333 E8.93878
G1 X92.226 Y92.594 E8.96049
G1 X100.389 Y100.757 E9.29995
G1 X101.128 Y100.757 E9.32167
G1 X92.226 Y91.856 E9.69184
G1 X92.226 Y91.117 E9.71355
G1 X101.866 Y100.757 E10.11443
G1 X102.605 Y100.757 E10.13614
G1 X92.226 Y90.379 E10.56773
G1 X92.226 Y89.640 E10.58944
G1 X103.343 Y100.757 E11.05174
G1 X104.081 Y100.757 E11.07345
G1 X92.226 Y88.902 E11.56646
G1 X92.226 Y88.164 E11.58817
G1 X104.820 Y100.757 E12.11189
G1 X105.558 Y100.757 E12.13360
G1 X92.226 Y87.425 E12.68802
G1 X92.226 Y86.687 E12.70974
G1 X106.297 Y100.757 E13.29487
G1 X107.035 Y100.757 E13.31658
G1 X92.226 Y85.948 E13.93242
G1 X92.246 Y85.230 E13.95356
G1 X107.754 Y100.737 E14.59844
G1 X107.774 Y100.019 E14.61958
G1 X92.965 Y85.210 E15.23542
G1 X93.703 Y85.210 E15.25713
G1 X107.774 Y99.280 E15.84226
G1 X107.774 Y98.542 E15.86398
G1 X94.442 Y85.210 E16.41840
G1 X95.180 Y85.210 E16.44012
G1 X107.774 Y97.803 E16.96383
G1 X107.774 Y97.065 E16.98554
G1 X95.919 Y85.210 E17.47855
G1 X96.657 Y85.210 E17.50026
G1 X107.774 Y96.327 E17.96256
G1 X107.774 Y95.588 E17.98427
G1 X97.395 Y85.210 E18.41586
G1 X98.134 Y85.210 E18.43757
G1 X107.774 Y94.850 E18.83845
G1 X107.774 Y94.111 E18.86017
G1 X98.872 Y85.210 E19.23034
G1 X99.611 Y85.210 E19.25205
G1 X107.774 Y93.373 E19.59151
G1 X107.774 Y92.634 E19.61323
G1 X100.349 Y85.210 E19.92198
G1 X101.088 Y85.210 E19.94369
G1 X107.774 Y91.896 E20.22173
G1 X107.774 Y91.157 E20.24345
G1 X101.826 Y85.210 E20.49078
G1 X102.565 Y85.210 E20.51250
G1 X107.774 Y90.419 E20.72912
G1 X107.774 Y89.680 E20.75084
G1 X103.303 Y85.210 E20.93675
G1 X104.041 Y85.210 E20.95847
G1 X107.774 Y88.942 E21.11368
G1 X107.774 Y88.204 E21.13539
G1 X104.780 Y85.210 E21.25989
G1 X105.518 Y85.210 E21.28160
G1 X107.774 Y87.465 E21.37539
G1 X107.774 Y86.727 E21.39711
G1 X106.257 Y85.210 E21.46019
G1 X106.995 Y85.210 E21.48190
G1 X107.774 Y85.988 E21.51428
G1 X107.774 Y85.250 E21.53599
G1 X107.734 Y85.210 E21.53765
G1 F1800.000 E20.53765
G92 E0
G1 Z1.550 F7800.000
G1 X92.173 Y114.879 F7800.000
G1 E1.00000 F1800.000
G1 X92.339 Y114.407 E1.01415 F600.000
G1 X93.943 Y114.970 E1.06225
G1 X95.828 Y115.420 E1.11709
G1 X97.747 Y115.693 E1.17194
G1 X99.684 Y115.766 E1.22679
G1 X101.620 Y115.659 E1.28163
G1 X103.534 Y115.353 E1.33648
G1 X105.411 Y114.870 E1.39132
G1 X107.005 Y114.279 E1.43942
G1 X107.179 Y114.748 E1.45357
G1 X105.561 Y115.348 E1.50240
G1 X103.636 Y115.843 E1.55864
G1 X101.673 Y116.157 E1.61488
G1 X99.689 Y116.266 E1.67111
G1 X97.703 Y116.191 E1.72735
G1 X95.735 Y115.912 E1.78358
G1 X93.801 Y115.451 E1.83982
G1 X92.244 Y114.904 E1.88653
G1 X92.552 Y114.553 F7800.000
G1 F1800.000 E0.88653
G92 E0
G1 X91.907 Y101.076 F7800.000
G1 E1.00000 F1800.000
G1 X91.907 Y84.891 E1.47593 F807.473
G1 X108.093 Y84.891 E1.95185
G1 X108.093 Y101.076 E2.42778
G1 X91.982 Y101.076 E2.90150
G1 X91.388 Y101.596 F7800.000
G1 X91.388 Y84.371 E3.40799 F807.473
G1 X108.612 Y84.371 E3.91448
G1 X108.612 Y101.596 E4.42096
G1 X91.463 Y101.596 E4.92525
G1 X90.878 Y102.105 F7800.000
G1 X90.878 Y83.862 E5.44144 F600.000
G1 X109.122 Y83.862 E5.95764
G1 X109.122 Y102.105 E6.47384
G1 X90.953 Y102.105 E6.98792
G1 X91.128 Y101.672 F7800.000
G1 X92.284 Y98.851 F7800.000
G1 X92.329 Y98.863 E6.98929 F1614.945
G1 X93.602 Y97.590 E7.04222
G1 X93.369 Y96.720 E7.06869
G1 X94.642 Y95.448 E7.12162
G1 X95.511 Y95.681 E7.14808
G1 X96.784 Y94.408 E7.20102
G1 X96.551 Y93.538 E7.22748
G1 X97.824 Y92.266 E7.28041
G1 X98.693 Y92.498 E7.30688
G1 X99.966 Y91.226 E7.35981
G1 X99.733 Y90.356 E7.38628
G1 X101.006 Y89.083 E7.43921
G1 X101.876 Y89.316 E7.46567
G1 X103.148 Y88.044 E7.51860
G1 X102.915 Y87.174 E7.54507
G1 X104.188 Y85.901 E7.59800
G1 X105.058 Y86.134 E7.62447
G1 X105.924 Y85.268 E7.66050
G1 X106.659 Y85.268 E7.68211
G1 X105.425 Y86.502 E7.73343
G1 X105.658 Y87.371 E7.75990
G1 X104.385 Y88.644 E7.81283
G1 X103.516 Y88.411 E7.83929
G1 X102.243 Y89.684 E7.89222
G1 X102.476 Y90.553 E7.91869
G1 X101.203 Y91.826 E7.97162
G1 X100.334 Y91.593 E7.99809
G1 X99.061 Y92.866 E8.05102
G1 X99.294 Y93.735 E8.07748
G1 X98.021 Y95.008 E8.13042
G1 X97.152 Y94.775 E8.15688
G1 X95.879 Y96.048 E8.20981
G1 X96.112 Y96.917 E8.23628
G1 X94.839 Y98.190 E8.28921
G1 X93.970 Y97.957 E8.31568
G1 X92.697 Y99.230 E8.36861
G1 X92.930 Y100.099 E8.39507
G1 X92.330 Y100.699 E8.42002
G1 X93.065 Y100.699 E8.44163
G1 X93.297 Y100.467 E8.45129
G1 X94.167 Y100.699 E8.47777
G1 X95.439 Y99.427 E8.53068
G1 X95.206 Y98.558 E8.55715
G1 X96.479 Y97.285 E8.61008
G1 X97.349 Y97.518 E8.63654
G1 X98.621 Y96.245 E8.68947
G1 X98.388 Y95.376 E8.71594
G1 X99.661 Y94.103 E8.76887
G1 X100.531 Y94.336 E8.79534
G1 X101.803 Y93.063 E8.84827
G1 X101.571 Y92.193 E8.87473
G1 X102.843 Y90.921 E8.92767
G1 X103.713 Y91.154 E8.95413
G1 X104.986 Y89.881 E9.00706
G1 X104.753 Y89.011 E9.03353
G1 X106.025 Y87.739 E9.08646
G1 X106.895 Y87.971 E9.11293
G1 X107.716 Y87.150 E9.14707
G1 X107.716 Y87.885 E9.16868
G1 X107.262 Y88.339 E9.18754
G1 X107.495 Y89.208 E9.21400
G1 X106.222 Y90.481 E9.26694
G1 X105.353 Y90.248 E9.29340
G1 X104.080 Y91.521 E9.34633
G1 X104.313 Y92.390 E9.37280
G1 X103.040 Y93.663 E9.42573
G1 X102.171 Y93.430 E9.45220
G1 X100.898 Y94.703 E9.50513
G1 X101.131 Y95.572 E9.53159
G1 X99.858 Y96.845 E9.58452
G1 X98.989 Y96.612 E9.61099
G1 X97.716 Y97.885 E9.66392
G1 X97.949 Y98.755 E9.69039
G1 X96.676 Y100.027 E9.74332
G1 X95.807 Y99.794 E9.76978
G1 X94.902 Y100.699 E9.80741
G1 X97.125 Y100.699 E9.87279
G1 X97.044 Y100.395 E9.88206
G1 X98.316 Y99.122 E9.93499
G1 X99.186 Y99.355 E9.96146
G1 X100.459 Y98.082 E10.01439
G1 X100.226 Y97.213 E10.04085
G1 X101.498 Y95.940 E10.09379
G1 X102.368 Y96.173 E10.12025
G1 X103.641 Y94.900 E10.17318
G1 X103.408 Y94.031 E10.19965
G1 X104.681 Y92.758 E10.25258
G1 X105.550 Y92.991 E10.27905
G1 X106.823 Y91.718 E10.33198
G1 X106.590 Y90.849 E10.35844
G1 X107.716 Y89.723 E10.40527
G1 X107.716 Y92.226 E10.47889
G1 X107.190 Y92.085 E10.49489
G1 X105.917 Y93.358 E10.54782
G1 X106.150 Y94.228 E10.57429
G1 X104.877 Y95.500 E10.62722
G1 X104.008 Y95.267 E10.65369
G1 X102.735 Y96.540 E10.70662
G1 X102.968 Y97.410 E10.73308
G1 X101.695 Y98.682 E10.78601
G1 X100.826 Y98.450 E10.81248
G1 X99.553 Y99.722 E10.86541
G1 X99.786 Y100.592 E10.89188
G1 X99.679 Y100.699 E10.89635
