; generated by Slic3r 1.2.0-dev on 2014-06-13 at 11:59:52

; external perimeters extrusion width = 0.50mm
; perimeters extrusion width = 0.52mm
; infill extrusion width = 0.52mm
; solid infill extrusion width = 0.52mm
; top infill extrusion width = 0.52mm

G21 ; set units to millimeters
M107
M104 S200 ; set temperature
G28 ; home all axes
G1 Z5 F5000 ; lift nozzle

M109 S200 ; wait for temperature to be reached
G90 ; use absolute coordinates
G92 E0
M82 ; use absolute distances for extrusion
G1 F1800.000 E-1.00000
G92 E0
G1 Z0.350 F7800.000
G1 X159.661 Y105.160 F7800.000
G1 E1.00000 F1800.000
G1 X159.905 Y104.916 E1.01124 F600.000
G1 X161.787 Y103.595 E1.08604
G1 X164.006 Y102.994 E1.16084
G1 X166.297 Y103.183 E1.23564
G1 X167.704 Y103.728 E1.28472
G1 X171.710 Y105.828 E1.43187
G1 X173.531 Y107.231 E1.50667
G1 X174.766 Y109.170 E1.58147
G1 X175.116 Y110.280 E1.61932
G1 X175.214 Y110.719 E1.63398
G1 X175.097 Y114.060 E1.74274
G1 X174.559 Y115.868 E1.80409
G1 X173.533 Y117.925 E1.87889
G1 X171.869 Y119.511 E1.95369
G1 X169.764 Y120.436 E2.02849
G1 X166.748 Y120.472 E2.12663
G1 X164.021 Y119.866 E2.21754
G1 X162.555 Y119.475 E2.26688
G1 X160.469 Y118.508 E2.34168
G1 X158.837 Y116.889 E2.41648
G1 X157.853 Y114.811 E2.49128
G1 X157.616 Y112.838 E2.55594
G1 X157.714 Y109.663 E2.65930
G1 X158.181 Y107.411 E2.73410
G1 X159.620 Y105.223 E2.81932
G1 F1800.000 E1.81932
G92 E0
G1 X165.845 Y112.705 F7800.000
G1 E1.00000 F1800.000
G1 X165.598 Y113.034 E1.01339 F600.000
G1 X164.655 Y112.783 E1.04513
G1 X164.896 Y110.811 E1.10976
G1 X165.218 Y110.489 E1.12457
G1 X165.540 Y110.754 E1.13814
G1 X166.110 Y111.405 E1.16628
G1 X166.299 Y111.216 E1.17500
G1 X166.743 Y111.420 E1.19089
G1 X167.037 Y111.494 E1.20076
G1 X167.209 Y111.838 E1.21329
G1 X167.571 Y111.748 E1.22543
G1 X168.212 Y111.988 E1.24771
G1 X168.332 Y112.227 E1.25639
G1 X167.940 Y113.545 E1.30113
G1 X166.228 Y113.088 E1.35877
G1 X165.898 Y112.758 E1.37397
G1 X165.527 Y112.443 F7800.000
G1 X165.537 Y111.444 F7800.000
G1 X165.325 Y111.232 E1.38375 F600.000
G1 X166.189 Y111.790 F7800.000
G1 X166.647 Y112.414 E1.42110 F600.000
G1 X167.126 Y112.592 E1.44575
G1 X167.407 Y112.594 E1.45932
G1 X167.716 Y113.145 E1.48981
G1 F1800.000 E0.48981
G92 E0
G1 Z0.750 F7800.000
G1 X38.123 Y139.728 F7800.000
G1 E1.00000 F1800.000
M106 S255
G1 X38.043 Y139.648 E1.00312 F3600.000
G1 X39.344 Y138.738 E1.04722
G1 X39.473 Y137.444 E1.08335
G1 X39.395 Y137.132 E1.09226
G1 X40.206 Y137.280 E1.11515
G1 X40.940 Y137.117 E1.13603
G1 X42.292 Y136.719 E1.17518
G1 X42.899 Y136.802 E1.19220
G1 X43.641 Y136.484 E1.21461
G1 X44.070 Y136.668 E1.22759
G1 X44.834 Y136.668 E1.24879
G1 X44.919 Y136.640 E1.25130
G1 X45.004 Y136.668 E1.25380
G1 X45.844 Y136.668 E1.27711
G1 X45.976 Y136.580 E1.28154
G1 X46.231 Y136.529 E1.28874
G1 X46.689 Y136.660 E1.30199
G1 X49.941 Y135.926 E1.39459
G1 X49.941 Y136.114 E1.39983
G1 X50.150 Y136.323 E1.40802
G1 X51.604 Y142.887 E1.59479
G1 X47.495 Y143.867 E1.71212
G1 X44.203 Y144.702 E1.80646
G1 X42.688 Y145.114 E1.85008
G1 X42.484 Y144.706 E1.86275
G1 X42.583 Y144.452 E1.87031
G1 X42.779 Y143.535 E1.89635
G1 X42.779 Y142.723 E1.91891
G1 X42.199 Y142.143 E1.94169
G1 X42.074 Y141.706 E1.95431
G1 X41.918 Y141.589 E1.95975
G1 X41.752 Y140.814 E1.98176
G1 X40.065 Y139.850 E2.03573
G1 X39.588 Y140.327 E2.05446
G1 X38.236 Y140.134 E2.09241
G1 X38.025 Y139.923 E2.10068
G1 X38.089 Y139.795 E2.10466
M107
G1 X38.041 Y142.334 F7800.000
M106 S255
G1 X38.041 Y142.025 E2.11327 F3600.000
G1 X38.852 Y141.213 E2.14515
G1 X38.852 Y142.269 E2.17448
G1 X38.901 Y142.318 E2.17640
G1 X38.901 Y142.655 E2.18576
G1 X39.135 Y143.277 E2.20423
G1 X38.468 Y143.482 E2.22361
G1 X37.846 Y143.812 E2.24316
G1 X37.788 Y143.524 E2.25131
G1 X37.748 Y142.807 E2.27127
G1 X37.798 Y142.456 E2.28112
G1 X37.974 Y142.368 E2.28658
M107
G1 X37.521 Y142.013 F7800.000
M106 S255
G1 X37.521 Y141.809 E2.29224 F3600.000
G1 X38.617 Y140.713 E2.33530
G1 X37.427 Y140.543 E2.36870
G1 X37.588 Y140.221 E2.37870
G1 X37.393 Y140.026 E2.38638
G1 X37.490 Y139.830 E2.39244
G1 X37.250 Y139.590 E2.40190
G1 X37.714 Y139.125 E2.42016
G1 X37.922 Y139.099 E2.42597
G1 X38.850 Y138.449 E2.45745
G1 X38.947 Y137.482 E2.48445
G1 X38.883 Y137.226 E2.49178
G1 X38.857 Y136.814 E2.50325
G1 X39.073 Y136.714 E2.50985
G1 X39.622 Y136.645 E2.52522
G1 X40.196 Y136.750 E2.54142
G1 X40.810 Y136.613 E2.55890
G1 X41.930 Y136.284 E2.59132
G1 X42.015 Y136.157 E2.59556
G1 X42.827 Y136.268 E2.61833
G1 X43.470 Y135.981 E2.63789
G1 X43.706 Y135.960 E2.64446
G1 X44.177 Y136.148 E2.65856
G1 X44.749 Y136.148 E2.67446
G1 X44.919 Y136.092 E2.67943
G1 X45.089 Y136.148 E2.68440
G1 X45.686 Y136.148 E2.70100
G1 X45.833 Y136.051 E2.70589
G1 X45.971 Y136.051 E2.70973
G1 X46.215 Y136.002 E2.71665
G1 X46.278 Y136.002 E2.71839
G1 X46.704 Y136.124 E2.73071
G1 X50.461 Y135.275 E2.83767
G1 X50.461 Y135.899 E2.85499
G1 X50.624 Y136.062 E2.86141
G1 X52.222 Y143.274 E3.06659
G1 X47.619 Y144.372 E3.19802
G1 X44.335 Y145.205 E3.29214
G1 X42.183 Y145.789 E3.35408
G1 X42.231 Y145.361 E3.36604
G1 X41.916 Y144.732 E3.38558
G1 X42.083 Y144.302 E3.39839
G1 X42.259 Y143.480 E3.42174
G1 X42.259 Y142.938 E3.43679
G1 X41.736 Y142.415 E3.45733
G1 X41.623 Y142.017 E3.46884
G1 X41.450 Y141.888 E3.47483
G1 X41.292 Y141.150 E3.49579
G1 X40.152 Y140.498 E3.53228
G1 X39.372 Y141.278 E3.56290
G1 X39.372 Y142.054 E3.58446
G1 X39.421 Y142.102 E3.58638
G1 X39.421 Y142.560 E3.59910
G1 X39.763 Y143.473 E3.62617
G1 X39.276 Y143.777 E3.64212
G1 X38.667 Y143.965 E3.65981
G1 X37.733 Y144.460 E3.68919
G1 X37.420 Y144.677 E3.69977
G1 X37.180 Y144.497 E3.70810
G1 X37.351 Y143.986 E3.72308
G1 X37.272 Y143.593 E3.73422
G1 X37.228 Y142.935 E3.75254
G1 X37.228 Y142.770 E3.75712
G1 X37.285 Y142.374 E3.76823
G1 X37.252 Y142.147 E3.77458
G1 X37.454 Y142.047 E3.78085
M107
G1 X37.011 Y141.698 F7800.000
M106 S255
G1 X37.011 Y141.598 E3.78362 F3600.000
G1 X37.536 Y141.074 E3.80423
G1 X36.655 Y140.948 E3.82895
G1 X36.968 Y140.322 E3.84839
G1 X36.772 Y140.126 E3.85606
G1 X36.870 Y139.931 E3.86213
G1 X36.364 Y139.425 E3.88203
G1 X36.758 Y139.178 E3.89494
G1 X36.795 Y139.105 E3.89721
G1 X37.144 Y138.974 E3.90758
G1 X37.478 Y138.641 E3.92068
G1 X37.733 Y138.609 E3.92783
G1 X38.366 Y138.165 E3.94931
G1 X38.431 Y137.519 E3.96734
G1 X38.377 Y137.304 E3.97350
G1 X38.334 Y136.613 E3.99275
G1 X38.411 Y136.458 E3.99755
G1 X38.931 Y136.218 E4.01346
G1 X39.636 Y136.130 E4.03320
G1 X40.186 Y136.230 E4.04871
G1 X40.683 Y136.119 E4.06285
G1 X41.608 Y135.847 E4.08965
G1 X41.767 Y135.609 E4.09761
G1 X42.756 Y135.743 E4.12532
G1 X43.182 Y135.560 E4.13822
G1 X43.295 Y135.485 E4.14198
G1 X43.733 Y135.445 E4.15420
G1 X43.916 Y135.482 E4.15939
G1 X44.282 Y135.639 E4.17042
G1 X44.666 Y135.639 E4.18112
G1 X44.919 Y135.554 E4.18851
G1 X45.172 Y135.639 E4.19590
G1 X45.532 Y135.639 E4.20592
G1 X45.679 Y135.541 E4.21081
G1 X45.921 Y135.541 E4.21754
G1 X46.165 Y135.492 E4.22446
G1 X46.349 Y135.492 E4.22958
G1 X46.719 Y135.598 E4.24026
G1 X50.888 Y134.656 E4.35897
G1 X51.099 Y134.974 E4.36957
G1 X50.970 Y135.232 E4.37758
G1 X50.970 Y135.688 E4.39024
G1 X51.090 Y135.807 E4.39493
G1 X52.828 Y143.653 E4.61817
G1 X47.741 Y144.867 E4.76344
G1 X44.465 Y145.698 E4.85734
G1 X41.594 Y146.477 E4.93997
G1 X41.707 Y145.454 E4.96856
G1 X41.359 Y144.758 E4.99019
G1 X41.593 Y144.156 E5.00814
G1 X41.750 Y143.426 E5.02886
G1 X41.750 Y143.150 E5.03655
G1 X41.283 Y142.683 E5.05489
G1 X41.180 Y142.322 E5.06531
G1 X40.992 Y142.181 E5.07183
G1 X40.841 Y141.480 E5.09176
G1 X40.237 Y141.134 E5.11111
G1 X39.882 Y141.489 E5.12505
G1 X39.882 Y141.842 E5.13487
G1 X39.992 Y141.953 E5.13921
G1 X39.931 Y142.138 E5.14463
G1 X39.931 Y142.468 E5.15380
G1 X40.124 Y142.983 E5.16908
G1 X40.371 Y143.132 E5.17709
G1 X40.318 Y143.980 E5.20071
G1 X39.914 Y143.980 E5.21195
G1 X39.490 Y144.245 E5.22584
G1 X38.863 Y144.438 E5.24404
G1 X37.999 Y144.896 E5.27122
G1 X36.701 Y145.800 E5.31515
G1 X36.569 Y145.401 E5.32681
G1 X36.526 Y144.847 E5.34224
G1 X36.824 Y143.953 E5.36843
G1 X36.765 Y143.660 E5.37674
G1 X36.718 Y142.952 E5.39645
G1 X36.718 Y142.734 E5.40251
G1 X36.770 Y142.374 E5.41260
G1 X36.718 Y142.014 E5.42270
G1 X36.718 Y141.844 E5.42741
G1 X36.944 Y141.731 E5.43443
M107
G1 X38.445 Y139.803 F7800.000
M106 S255
G1 X38.449 Y139.800 E5.43457 F3600.000
M107
G1 X39.854 Y137.578 F7800.000
M106 S255
G1 X39.814 Y137.618 E5.43612 F3600.000
G1 X39.724 Y138.525 E5.46145
G1 X40.717 Y137.532 E5.50047
G1 X41.842 Y137.223 E5.53288
G1 X39.160 Y139.905 E5.63824
G1 X40.305 Y139.577 E5.67134
G1 X42.741 Y137.140 E5.76704
G1 X43.771 Y136.928 E5.79623
G1 X40.825 Y139.873 E5.91195
G1 X41.344 Y140.170 E5.92858
G1 X44.490 Y137.025 E6.05215
G1 X45.306 Y137.025 E6.07483
G1 X41.864 Y140.467 E6.21007
G1 X42.155 Y140.993 E6.22676
G1 X46.244 Y136.904 E6.38740
G1 X47.012 Y136.953 E6.40876
G1 X42.404 Y141.561 E6.58978
G1 X42.671 Y142.110 E6.60675
G1 X48.066 Y136.715 E6.81871
G1 X49.121 Y136.476 E6.84875
G1 X43.079 Y142.518 E7.08610
G1 X43.136 Y143.278 E7.10726
G1 X49.840 Y136.574 E7.37062
G1 X49.988 Y137.242 E7.38964
G1 X42.994 Y144.237 E7.66441
G1 X43.532 Y144.515 E7.68125
G1 X50.136 Y137.911 E7.94068
G1 X50.284 Y138.579 E7.95970
G1 X44.640 Y144.223 E8.18143
G1 X45.734 Y143.946 E8.21278
G1 X50.432 Y139.248 E8.39735
G1 X50.580 Y139.916 E8.41636
G1 X46.828 Y143.668 E8.56376
G1 X47.912 Y143.401 E8.59477
G1 X50.729 Y140.584 E8.70541
G1 X50.877 Y141.253 E8.72443
G1 X48.984 Y143.145 E8.79876
G1 X50.057 Y142.889 E8.82938
G1 X51.025 Y141.921 E8.86741
G1 X51.129 Y142.633 E8.88740
G1 X51.173 Y142.590 E8.88912
M107
G1 F1800.000 E7.88912
G92 E0
G1 X38.657 Y143.019 F7800.000
G1 E1.00000 F1800.000
M106 S255
G1 X38.611 Y143.065 E1.00180 F3600.000
G1 X38.195 Y142.656 E1.01801
G1 X38.128 Y142.723 E1.02065
M107
G1 F1800.000 E0.02065
G92 E0
G1 X36.035 Y134.380 F7800.000
G1 E1.00000 F1800.000
M106 S255
G1 X35.858 Y133.812 E1.01652 F3600.000
G1 X35.428 Y132.574 E1.05293
G1 X35.036 Y131.839 E1.07606
G1 X34.411 Y130.060 E1.12846
G1 X33.480 Y128.145 E1.18760
G1 X32.873 Y127.387 E1.21457
G1 X32.793 Y126.986 E1.22591
G1 X32.656 Y126.849 E1.23130
G1 X32.558 Y126.507 E1.24118
G1 X32.245 Y126.194 E1.25349
G1 X32.348 Y125.474 E1.27368
G1 X32.019 Y124.751 E1.29575
G1 X40.920 Y122.311 E1.55211
G1 X46.618 Y120.956 E1.71481
G1 X47.670 Y125.732 E1.85066
G1 X47.858 Y125.974 E1.85916
G1 X47.453 Y126.784 E1.88434
G1 X47.719 Y127.849 E1.91483
G1 X48.596 Y129.164 E1.95873
G1 X48.915 Y129.347 E1.96894
G1 X48.949 Y129.518 E1.97379
G1 X49.317 Y129.885 E1.98823
G1 X49.858 Y130.747 E2.01649
G1 X49.658 Y131.027 E2.02605
G1 X46.159 Y131.817 E2.12568
G1 X45.960 Y131.760 E2.13145
G1 X45.409 Y131.760 E2.14673
G1 X45.165 Y131.809 E2.15365
G1 X44.523 Y131.809 E2.17151
G1 X44.315 Y131.739 E2.17758
G1 X43.914 Y131.873 E2.18933
G1 X43.768 Y131.811 E2.19372
G1 X43.211 Y131.699 E2.20950
G1 X42.166 Y131.794 E2.23867
G1 X41.911 Y131.964 E2.24716
G1 X40.422 Y131.761 E2.28893
G1 X40.040 Y132.334 E2.30804
G1 X39.551 Y132.467 E2.32211
G1 X39.075 Y132.380 E2.33555
G1 X37.902 Y132.527 E2.36840
G1 X36.679 Y133.091 E2.40581
G1 X36.068 Y134.313 E2.44374
M107
G1 X35.868 Y135.546 F7800.000
M106 S255
G1 X35.799 Y135.374 E2.44888 F3600.000
G1 X35.365 Y133.974 E2.48960
G1 X34.950 Y132.783 E2.52464
G1 X34.559 Y132.049 E2.54774
G1 X33.930 Y130.258 E2.60047
G1 X33.040 Y128.427 E2.65703
G1 X32.388 Y127.612 E2.68599
G1 X32.314 Y127.243 E2.69647
G1 X32.193 Y127.121 E2.70123
G1 X32.095 Y126.779 E2.71111
G1 X31.694 Y126.378 E2.72689
G1 X31.812 Y125.551 E2.75009
G1 X31.544 Y124.961 E2.76808
G1 X31.544 Y124.775 E2.77325
G1 X31.429 Y124.374 E2.78485
G1 X40.791 Y121.808 E3.05449
G1 X47.012 Y120.329 E3.23211
G1 X48.153 Y125.506 E3.37938
G1 X48.440 Y125.875 E3.39237
G1 X48.440 Y126.111 E3.39893
G1 X48.351 Y126.149 E3.40160
G1 X48.004 Y126.845 E3.42321
G1 X48.201 Y127.636 E3.44586
G1 X48.960 Y128.774 E3.48386
G1 X49.378 Y129.013 E3.49723
G1 X49.428 Y129.262 E3.50428
G1 X49.725 Y129.559 E3.51597
G1 X50.483 Y130.765 E3.55553
G1 X49.966 Y131.490 E3.58028
G1 X46.144 Y132.353 E3.68910
G1 X45.887 Y132.279 E3.69654
G1 X45.461 Y132.279 E3.70837
G1 X45.217 Y132.328 E3.71529
G1 X44.769 Y132.328 E3.72773
G1 X44.659 Y132.402 E3.73141
G1 X44.315 Y132.287 E3.74147
G1 X43.891 Y132.429 E3.75389
G1 X43.613 Y132.310 E3.76227
G1 X43.183 Y132.224 E3.77445
G1 X42.344 Y132.300 E3.79786
G1 X42.095 Y132.466 E3.80617
G1 X42.011 Y132.502 E3.80872
G1 X40.674 Y132.320 E3.84621
G1 X40.368 Y132.779 E3.86154
G1 X39.826 Y132.938 E3.87721
G1 X39.562 Y132.997 E3.88474
G1 X39.061 Y132.906 E3.89889
G1 X38.046 Y133.033 E3.92728
G1 X37.062 Y133.487 E3.95739
G1 X36.705 Y134.201 E3.97958
G1 X36.782 Y135.432 E4.01382
G1 X35.942 Y135.537 E4.03732
M107
G1 X36.458 Y135.986 F7800.000
M106 S255
G1 X36.378 Y136.226 E4.04435 F3600.000
G1 X36.263 Y136.341 E4.04888
G1 X36.006 Y136.438 E4.05651
G1 X35.864 Y136.390 E4.06066
G1 X35.624 Y136.471 E4.06769
G1 X35.516 Y136.040 E4.08002
G1 X35.318 Y135.545 E4.09483
G1 X34.880 Y134.133 E4.13587
G1 X34.482 Y132.988 E4.16957
G1 X34.091 Y132.255 E4.19265
G1 X33.458 Y130.453 E4.24571
G1 X32.608 Y128.703 E4.29974
G1 X31.913 Y127.834 E4.33065
G1 X31.845 Y127.494 E4.34029
G1 X31.739 Y127.388 E4.34443
G1 X31.642 Y127.046 E4.35430
G1 X31.437 Y126.842 E4.36235
G1 X31.147 Y126.601 E4.37283
G1 X31.286 Y125.626 E4.40017
G1 X31.034 Y125.072 E4.41709
G1 X31.034 Y124.847 E4.42334
G1 X30.944 Y124.531 E4.43246
G1 X31.070 Y123.944 E4.44914
G1 X40.664 Y121.314 E4.72549
G1 X47.398 Y119.713 E4.91776
G1 X48.626 Y125.284 E5.07622
G1 X48.950 Y125.700 E5.09088
G1 X48.950 Y126.447 E5.11164
G1 X48.724 Y126.544 E5.11846
G1 X48.544 Y126.904 E5.12964
G1 X48.675 Y127.427 E5.14460
G1 X49.318 Y128.391 E5.17680
G1 X49.682 Y128.599 E5.18845
G1 X49.849 Y128.766 E5.19501
G1 X49.898 Y129.010 E5.20193
G1 X50.127 Y129.239 E5.21092
G1 X51.140 Y130.851 E5.26381
G1 X51.112 Y131.101 E5.27080
G1 X50.991 Y131.198 E5.27509
G1 X50.759 Y131.256 E5.28173
G1 X50.415 Y131.738 E5.29818
G1 X50.415 Y131.911 E5.30300
G1 X46.130 Y132.879 E5.42504
G1 X45.815 Y132.789 E5.43412
G1 X45.511 Y132.789 E5.44256
G1 X45.267 Y132.838 E5.44948
G1 X44.923 Y132.838 E5.45904
G1 X44.777 Y132.936 E5.46393
G1 X44.649 Y132.936 E5.46748
G1 X44.315 Y132.825 E5.47725
G1 X43.981 Y132.936 E5.48702
G1 X43.780 Y132.936 E5.49261
G1 X43.461 Y132.799 E5.50224
G1 X43.156 Y132.738 E5.51089
G1 X42.519 Y132.796 E5.52865
G1 X42.339 Y132.916 E5.53467
G1 X42.082 Y133.026 E5.54244
G1 X40.921 Y132.868 E5.57499
G1 X40.689 Y133.216 E5.58660
G1 X39.954 Y133.432 E5.60789
G1 X39.572 Y133.517 E5.61876
G1 X39.046 Y133.421 E5.63360
G1 X38.188 Y133.529 E5.65762
G1 X37.438 Y133.875 E5.68056
G1 X37.222 Y134.307 E5.69397
G1 X37.277 Y135.178 E5.71823
G1 X37.321 Y135.354 E5.72325
G1 X37.288 Y135.685 E5.73249
G1 X36.944 Y135.925 E5.74414
G1 X36.533 Y135.977 E5.75565
M107
G1 X35.918 Y132.897 F7800.000
M106 S255
G1 X46.543 Y122.272 E6.17303 F3600.000
G1 X46.397 Y121.612 E6.19180
G1 X35.694 Y132.315 E6.61226
G1 X35.414 Y131.790 E6.62879
G1 X45.652 Y121.553 E7.03096
G1 X44.595 Y121.804 E7.06112
G1 X35.192 Y131.207 E7.43052
G1 X34.983 Y130.611 E7.44806
G1 X43.539 Y122.055 E7.78418
G1 X42.483 Y122.306 E7.81434
G1 X34.773 Y130.015 E8.11719
G1 X34.518 Y129.465 E8.13404
G1 X41.426 Y122.557 E8.40540
G1 X40.338 Y122.840 E8.43664
G1 X34.255 Y128.923 E8.67560
G1 X33.992 Y128.382 E8.69234
G1 X39.229 Y123.144 E8.89808
G1 X38.120 Y123.449 E8.93003
G1 X33.708 Y127.860 E9.10331
G1 X33.351 Y127.412 E9.11923
G1 X37.010 Y123.753 E9.26300
G1 X35.901 Y124.057 E9.29495
G1 X33.126 Y126.832 E9.40397
G1 X32.854 Y126.299 E9.42060
G1 X34.792 Y124.361 E9.49672
G1 X33.683 Y124.665 E9.52867
G1 X32.680 Y125.667 E9.56804
G1 X32.530 Y125.012 E9.58670
G1 X32.573 Y124.969 E9.58841
M107
G1 X37.129 Y132.491 F7800.000
M106 S255
G1 X46.688 Y122.932 E9.96392 F3600.000
G1 X46.834 Y123.592 E9.98269
G1 X38.308 Y132.117 E10.31759
G1 X39.191 Y132.039 E10.34221
G1 X46.979 Y124.251 E10.64813
G1 X47.124 Y124.911 E10.66690
G1 X40.609 Y131.427 E10.92285
G1 X41.318 Y131.523 E10.94271
G1 X47.270 Y125.571 E11.17653
G1 X47.247 Y126.399 E11.19955
G1 X42.214 Y131.432 E11.39724
G1 X43.100 Y131.351 E11.42195
G1 X47.202 Y127.250 E11.58308
G1 X47.363 Y127.894 E11.60152
