; generated by Slic3r 1.2.2-dev on 2014-11-29 at 00:00:58

; external perimeters extrusion width = 0.50mm
; perimeters extrusion width = 0.72mm
; infill extrusion width = 0.72mm
; solid infill extrusion width = 0.72mm
; top infill extrusion width = 0.72mm

M107
M104 S200 ; set temperature
G28 ; home all axes
G1 Z5 F5000 ; lift nozzle

M109 S200 ; wait for temperature to be reached
G21 ; set units to millimeters
G90 ; use absolute coordinates
M82 ; use absolute distances for extrusion
G92 E0
G1 E-1.00000 F1800.00000
G92 E0
G1 Z0.350 F7800.000
G1 X90.362 Y85.662 F7800.000
G1 E1.00000 F1800.00000
G1 X92.346 Y84.512 E1.07096 F1080.000
G1 X94.541 Y84.108 E1.14003
G1 X128.548 Y83.674 E2.19233
G1 X130.812 Y84.042 E2.26329
G1 X132.814 Y85.160 E2.33425 F1080.000
G1 X134.370 Y86.986 E2.40847
G1 X139.971 Y96.688 E2.75509
G1 X140.757 Y98.842 E2.82605
G1 X140.760 Y101.136 E2.89701
G1 X139.971 Y103.312 E2.96866
G1 X122.854 Y132.960 E4.02789
G1 X121.381 Y134.717 E4.09885
G1 X119.397 Y135.867 E4.16982
G1 X117.139 Y136.272 E4.24078
G1 X114.879 Y135.883 E4.31174
G1 X112.775 Y134.651 E4.38716
G1 X90.284 Y115.140 E5.30844
G1 X88.888 Y113.448 E5.37630
G1 X83.287 Y103.746 E5.72292
G1 X82.502 Y101.592 E5.79388
G1 X82.498 Y99.298 E5.86485
G1 X83.287 Y97.121 E5.93649
G1 X88.888 Y87.420 E6.28311
G1 X90.314 Y85.720 E6.35175
G1 E5.35175 F1800.00000
G92 E0
G1 X127.719 Y91.916 F7800.000
G1 E1.00000 F1800.00000
G1 X132.386 Y100.000 E1.28883 F540.000
G1 X117.115 Y126.450 E2.23384
G1 X106.751 Y108.536 E2.87422
G1 X95.549 Y108.536 E3.22081
G1 X90.872 Y100.434 E3.51027
G1 X95.549 Y92.332 E3.79973
G1 X105.843 Y92.332 E4.11824
G1 X127.644 Y91.917 E4.79290
G1 X128.076 Y91.284 F7800.000
G1 X133.108 Y100.000 E5.10430 F540.000
G1 X117.116 Y127.699 E6.09393
G1 X106.390 Y109.161 E6.75662
G1 X95.189 Y109.161 E7.10322
G1 X90.150 Y100.434 E7.41500
G1 X95.189 Y91.707 E7.72679
G1 X105.837 Y91.707 E8.05628
G1 X128.001 Y91.286 E8.74216
G1 X128.433 Y90.652 F7800.000
G1 X133.830 Y100.000 E9.07614 F378.000
G1 X117.117 Y128.948 E10.11038
G1 X106.030 Y109.785 E10.79537
G1 X94.828 Y109.785 E11.14198
G1 X89.429 Y100.434 E11.47609
G1 X94.828 Y91.082 E11.81021
G1 X105.832 Y91.082 E12.15067
G1 X128.358 Y90.654 E12.84779
G1 X128.349 Y91.145 F7800.000
G1 X127.441 Y92.354 F7800.000
G1 X127.515 Y92.429 E12.85104 F1080.000
G1 X126.564 Y92.371 E12.88052
G1 X128.736 Y94.543 E12.97555
G1 X129.956 Y96.657 F7800.000
G1 X125.687 Y92.388 E13.16236 F1080.000
G1 X124.810 Y92.404 E13.18950
G1 X131.177 Y98.771 E13.46809
G1 X131.749 Y100.237 F7800.000
G1 X123.933 Y92.421 E13.81011 F1080.000
G1 X123.056 Y92.438 E13.83724
G1 X131.422 Y100.804 E14.20332
G1 X131.095 Y101.370 E14.22356
G1 X122.180 Y92.454 E14.61369
G1 X121.303 Y92.471 E14.64083
G1 X130.768 Y101.937 E15.05502
G1 X130.441 Y102.503 E15.07526
G1 X120.426 Y92.488 E15.51351
G1 X119.549 Y92.504 E15.54065
G1 X130.114 Y103.070 E16.00295
G1 X129.787 Y103.636 E16.02319
G1 X118.672 Y92.521 E16.50956
G1 X117.795 Y92.538 E16.53670
G1 X129.460 Y104.203 E17.04712
G1 X129.133 Y104.769 E17.06736
G1 X116.918 Y92.554 E17.60184
G1 X116.041 Y92.571 E17.62898
G1 X128.806 Y105.336 E18.18752
G1 X128.479 Y105.902 E18.20776
G1 X115.165 Y92.588 E18.79036
G1 X114.288 Y92.605 E18.81749
G1 X128.152 Y106.469 E19.42415
G1 X127.825 Y107.035 E19.44439
G1 X113.411 Y92.621 E20.07510
G1 X112.534 Y92.638 E20.10224
G1 X127.498 Y107.602 E20.75701
G1 X127.171 Y108.168 E20.77725
G1 X111.657 Y92.655 E21.45608
G1 X110.780 Y92.671 E21.48322
G1 X126.844 Y108.734 E22.18611
G1 X126.516 Y109.301 E22.20635
G1 X109.903 Y92.688 E22.93330
G1 X109.027 Y92.705 E22.96043
G1 X126.189 Y109.867 E23.71144
G1 X125.862 Y110.434 E23.73168
G1 X108.150 Y92.721 E24.50674
G1 X107.273 Y92.738 E24.53388
G1 X125.535 Y111.000 E25.33300
G1 X125.208 Y111.567 E25.35324
G1 X106.396 Y92.755 E26.17642
G1 X105.513 Y92.765 E26.20375
G1 X124.881 Y112.133 E27.05126
G1 X124.554 Y112.700 E27.07150
G1 X104.619 Y92.765 E27.94380
G1 X103.726 Y92.765 E27.97145
G1 X124.227 Y113.266 E28.86853
G1 X123.900 Y113.833 E28.88877
G1 X102.832 Y92.765 E29.81065
G1 X101.939 Y92.765 E29.83830
G1 X123.573 Y114.399 E30.78496
G1 X123.246 Y114.966 E30.80520
G1 X101.045 Y92.765 E31.77665
G1 X100.152 Y92.765 E31.80430
G1 X122.919 Y115.532 E32.80054
G1 X122.592 Y116.099 E32.82078
G1 X99.258 Y92.765 E33.84181
G1 X98.364 Y92.765 E33.86946
G1 X122.265 Y116.665 E34.91527
G1 X121.938 Y117.232 E34.93551
G1 X97.471 Y92.765 E36.00612
G1 X96.577 Y92.765 E36.03377
G1 X121.611 Y117.798 E37.12916
G1 X121.283 Y118.365 E37.14940
G1 X95.757 Y92.839 E38.26636
G1 X95.430 Y93.405 E38.28660
G1 X120.956 Y118.931 E39.40357
G1 X120.629 Y119.498 E39.42381
G1 X95.103 Y93.971 E40.54078
G1 X94.776 Y94.538 E40.56102
G1 X120.302 Y120.064 E41.67799
G1 X119.975 Y120.631 E41.69823
G1 X94.449 Y95.104 E42.81521
G1 X94.122 Y95.671 E42.83545
G1 X106.554 Y108.103 E43.37943
G1 X105.660 Y108.103 E43.40708
G1 X93.795 Y96.237 E43.92628
G1 X93.468 Y96.804 E43.94652
G1 X104.766 Y108.103 E44.44092
G1 X103.873 Y108.103 E44.46857
G1 X93.141 Y97.370 E44.93819
G1 X92.814 Y97.937 E44.95843
G1 X102.979 Y108.103 E45.40326
G1 X102.086 Y108.103 E45.43091
G1 X92.486 Y98.503 E45.85096
G1 X92.159 Y99.070 E45.87120
G1 X101.192 Y108.103 E46.26645
G1 X100.299 Y108.103 E46.29410
G1 X91.832 Y99.636 E46.66457
G1 X91.505 Y100.203 E46.68481
G1 X99.405 Y108.103 E47.03049
G1 X98.512 Y108.103 E47.05813
G1 X92.095 Y101.685 E47.33893
G1 X93.315 Y103.800 F7800.000
G1 X97.618 Y108.103 E47.52722 F1080.000
G1 X96.725 Y108.103 E47.55487
G1 X94.536 Y105.914 E47.65064
G1 X95.756 Y108.028 F7800.000
G1 X95.831 Y108.103 E47.65391 F1080.000
G1 X107.614 Y109.163 F7800.000
G1 X119.648 Y121.197 E48.18048 F1080.000
G1 X119.321 Y121.764 E48.20072
G1 X108.841 Y111.284 E48.65931
G1 X110.068 Y113.404 F7800.000
G1 X118.994 Y122.330 E49.04991 F1080.000
G1 X118.667 Y122.897 E49.07015
G1 X111.294 Y115.524 E49.39276
G1 X112.521 Y117.644 F7800.000
G1 X118.340 Y123.463 E49.64739 F1080.000
G1 X118.013 Y124.030 E49.66763
G1 X113.748 Y119.764 E49.85426
G1 X114.974 Y121.885 F7800.000
G1 X117.686 Y124.596 E49.97292 F1080.000
G1 X117.359 Y125.163 E49.99316
G1 X116.201 Y124.005 E50.04382
G1 E49.04382 F1800.00000
G92 E0
G1 Z0.650 F7800.000
G1 X117.896 Y128.102 F7800.000
G1 E1.00000 F1800.00000
G1 X116.877 Y126.341 E1.05653 F1800.000
G1 X114.915 Y126.341 E1.11103
M106 S255
G1 X84.871 Y126.341 E1.94559 F3600.000
G1 X69.704 Y100.071 E2.78817
G1 X84.871 Y73.802 E3.63076
G1 X116.055 Y73.802 E4.49697
G1 X118.963 Y73.747 E4.57779
G1 X128.378 Y90.053 E5.10082
M107
G1 X134.121 Y100.000 E5.41986 F1800.000
G1 X117.933 Y128.037 E6.31916
G1 X117.897 Y129.410 F7800.000
M106 S255
G1 X117.719 Y129.104 E6.32899 F3600.000
M107
G1 X116.499 Y126.995 E6.39666 F1800.000
G1 X115.294 Y126.995 E6.43015
M106 S255
G1 X84.493 Y126.995 E7.28573 F3600.000
G1 X68.949 Y100.071 E8.14930
G1 X84.493 Y73.148 E9.01288
G1 X116.048 Y73.148 E9.88942
G1 X119.337 Y73.085 E9.98079
G1 X134.877 Y100.000 E10.84409
G1 X117.934 Y129.345 E11.78534
M107
G1 X117.897 Y130.499 F7800.000
M106 S255
G1 X117.405 Y129.648 E11.81264 F3600.000
M107
G1 X116.185 Y127.540 E11.85768 F1260.000
G1 X115.609 Y127.540 E11.86833
M106 S255
G1 X84.178 Y127.540 E12.74140 F3600.000
G1 X68.319 Y100.071 E13.62246
G1 X84.178 Y72.603 E14.50352
G1 X116.043 Y72.603 E15.38866
G1 X119.648 Y72.534 E15.48882
G1 X135.506 Y100.000 E16.36980
G1 X117.935 Y130.434 E17.34598
M107
G1 X118.657 Y125.875 F7800.000
G1 X118.588 Y125.945 E17.34870 F3600.000
G1 X118.245 Y125.352 E17.36770
G1 X119.934 Y123.664 E17.43404
G1 X117.902 Y124.760 F7800.000
G1 X121.210 Y121.452 E17.56399 F3600.000
G1 X122.487 Y119.241 F7800.000
G1 X117.560 Y124.168 E17.75754 F3600.000
G1 X117.217 Y123.576 E17.77655
G1 X123.764 Y117.030 E18.03372
G1 X125.041 Y114.818 F7800.000
G1 X116.875 Y122.984 E18.35450 F3600.000
G1 X116.532 Y122.392 E18.37350
G1 X126.317 Y112.607 E18.75790
G1 X127.594 Y110.395 F7800.000
G1 X116.190 Y121.800 E19.20591 F3600.000
G1 X115.847 Y121.208 E19.22491
G1 X128.871 Y108.184 E19.73654
G1 X130.148 Y105.973 F7800.000
G1 X115.505 Y120.616 E20.31177 F3600.000
G1 X115.162 Y120.024 E20.33077
G1 X131.424 Y103.761 E20.96962
G1 X132.701 Y101.550 F7800.000
G1 X114.819 Y119.432 E21.67208 F3600.000
G1 X114.477 Y118.839 E21.69109
G1 X133.494 Y99.823 E22.43813
G1 X133.151 Y99.230 E22.45714
G1 X114.134 Y118.247 E23.20420
G1 X113.792 Y117.655 E23.22321
G1 X132.809 Y98.638 E23.97029
G1 X132.467 Y98.045 E23.98929
G1 X113.449 Y117.063 E24.73640
G1 X113.107 Y116.471 E24.75540
G1 X132.125 Y97.453 E25.50252
G1 X131.783 Y96.860 E25.52152
G1 X112.764 Y115.879 E26.26866
G1 X112.422 Y115.287 E26.28766
G1 X131.441 Y96.267 E27.03481
G1 X131.099 Y95.675 E27.05382
G1 X112.079 Y114.695 E27.80099
G1 X111.736 Y114.103 E27.81999
G1 X130.757 Y95.082 E28.56718
G1 X130.415 Y94.490 E28.58619
G1 X111.394 Y113.511 E29.33339
G1 X111.051 Y112.919 E29.35240
G1 X130.073 Y93.897 E30.09962
G1 X129.628 Y93.407 E30.11800
G1 X110.709 Y112.326 E30.86121
G1 X110.366 Y111.734 E30.88021
G1 X128.675 Y93.425 E31.59946
G1 X127.722 Y93.444 E31.62593
G1 X110.024 Y111.142 E32.32120
G1 X109.681 Y110.550 E32.34020
G1 X126.770 Y93.462 E33.01149
G1 X125.817 Y93.480 E33.03797
G1 X109.339 Y109.958 E33.68529
G1 X108.996 Y109.366 E33.70429
G1 X124.864 Y93.498 E34.32765
G1 X123.911 Y93.516 E34.35412
G1 X108.653 Y108.774 E34.95350
G1 X108.311 Y108.182 E34.97250
G1 X122.958 Y93.534 E35.54791
G1 X122.006 Y93.552 E35.57438
G1 X107.968 Y107.590 E36.12582
G1 X107.615 Y107.008 E36.14472
G1 X121.053 Y93.570 E36.67260
G1 X120.100 Y93.589 E36.69907
G1 X106.680 Y107.008 E37.22625
G1 X105.746 Y107.008 E37.25221
G1 X119.147 Y93.607 E37.77867
G1 X118.195 Y93.625 E37.80514
G1 X104.811 Y107.008 E38.33088
G1 X103.877 Y107.008 E38.35685
G1 X117.242 Y93.643 E38.88188
G1 X116.289 Y93.661 E38.90835
G1 X102.942 Y107.008 E39.43268
G1 X102.007 Y107.008 E39.45864
G1 X115.336 Y93.679 E39.98225
G1 X114.383 Y93.697 E40.00872
G1 X101.073 Y107.008 E40.53162
G1 X100.138 Y107.008 E40.55758
G1 X113.431 Y93.715 E41.07977
G1 X112.478 Y93.734 E41.10624
G1 X99.203 Y107.008 E41.62771
G1 X98.269 Y107.008 E41.65367
G1 X111.525 Y93.752 E42.17444
G1 X110.572 Y93.770 E42.20091
G1 X97.334 Y107.008 E42.72096
G1 X96.431 Y106.976 E42.74605
G1 X109.620 Y93.788 E43.26414
G1 X108.667 Y93.806 E43.29061
G1 X96.078 Y106.395 E43.78517
G1 X95.735 Y105.803 E43.80417
G1 X107.714 Y93.824 E44.27473
G1 X106.761 Y93.842 E44.30121
G1 X95.393 Y105.210 E44.74778
G1 X95.051 Y104.618 E44.76678
G1 X105.809 Y93.860 E45.18941
G1 X104.875 Y93.860 E45.21537
G1 X94.709 Y104.025 E45.61471
G1 X94.367 Y103.433 E45.63372
G1 X103.940 Y93.860 E46.00978
G1 X103.005 Y93.860 E46.03575
G1 X94.025 Y102.840 E46.38853
G1 X93.683 Y102.248 E46.40754
G1 X102.071 Y93.860 E46.73705
G1 X101.136 Y93.860 E46.76301
G1 X93.341 Y101.655 E47.06925
G1 X92.999 Y101.062 E47.08825
G1 X100.201 Y93.860 E47.37121
G1 X99.267 Y93.860 E47.39717
G1 X92.656 Y100.470 E47.65685
G1 X93.835 Y98.357 F7800.000
G1 X98.332 Y93.860 E47.83353 F3600.000
G1 X97.398 Y93.860 E47.85949
G1 X95.111 Y96.146 E47.94930
G1 X96.388 Y93.934 F7800.000
G1 X96.463 Y93.860 E47.95223 F3600.000
G1 X92.403 Y100.328 F7800.000
M106 S255
G1 X77.366 Y87.710 E48.49750 F3600.000
G1 X77.645 Y87.226 E48.51303
G1 X92.682 Y99.844 E49.05829
G1 X92.962 Y99.360 E49.07383
G1 X77.925 Y86.742 E49.61909
G1 X78.204 Y86.258 E49.63462
G1 X93.242 Y98.875 E50.17989
G1 X93.521 Y98.391 E50.19542
G1 X78.484 Y85.773 E50.74069
G1 X78.764 Y85.289 E50.75622
G1 X93.801 Y97.907 E51.30149
G1 X94.080 Y97.423 E51.31702
G1 X79.043 Y84.805 E51.86229
G1 X79.323 Y84.321 E51.87782
G1 X94.360 Y96.938 E52.42309
G1 X94.639 Y96.454 E52.43862
G1 X79.602 Y83.837 E52.98388
G1 X79.882 Y83.352 E52.99942
G1 X94.919 Y95.970 E53.54468
G1 X95.199 Y95.486 E53.56021
G1 X80.161 Y82.868 E54.10548
G1 X80.441 Y82.384 E54.12101
G1 X95.478 Y95.001 E54.66628
G1 X95.758 Y94.517 E54.68181
G1 X80.721 Y81.900 E55.22708
G1 X81.000 Y81.415 E55.24261
G1 X96.037 Y94.033 E55.78788
G1 X96.384 Y93.605 E55.80317
G1 X81.280 Y80.931 E56.35087
G1 X81.559 Y80.447 E56.36640
G1 X97.241 Y93.605 E56.93503
G1 X98.097 Y93.605 E56.95882
G1 X81.839 Y79.963 E57.54837
G1 X82.118 Y79.478 E57.56390
G1 X98.954 Y93.605 E58.17438
G1 X99.811 Y93.605 E58.19817
G1 X82.398 Y78.994 E58.82958
G1 X82.678 Y78.510 E58.84511
G1 X100.667 Y93.605 E59.49743
G1 X101.524 Y93.605 E59.52123
G1 X82.957 Y78.026 E60.19448
G1 X83.237 Y77.541 E60.21001
G1 X102.380 Y93.605 E60.90419
G1 X103.237 Y93.605 E60.92799
G1 X83.516 Y77.057 E61.64309
G1 X83.796 Y76.573 E61.65863
G1 X104.094 Y93.605 E62.39466
G1 X104.950 Y93.605 E62.41845
G1 X84.075 Y76.089 E63.17541
G1 X84.355 Y75.605 E63.19094
G1 X105.807 Y93.605 E63.96883
G1 X106.646 Y93.590 E63.99213
G1 X84.635 Y75.120 E64.79029
G1 X84.914 Y74.636 E64.80582
G1 X107.484 Y93.574 E65.62422
G1 X108.321 Y93.558 E65.64749
G1 X85.319 Y74.257 E66.48159
G1 X86.175 Y74.257 E66.50539
G1 X109.159 Y93.542 E67.33880
G1 X109.997 Y93.526 E67.36208
G1 X87.032 Y74.257 E68.19480
G1 X87.889 Y74.257 E68.21860
G1 X110.834 Y93.510 E69.05064
G1 X111.672 Y93.494 E69.07391
G1 X88.745 Y74.257 E69.90526
G1 X89.602 Y74.257 E69.92906
G1 X112.510 Y93.478 E70.75972
G1 X113.347 Y93.462 E70.78299
G1 X90.459 Y74.257 E71.61296
G1 X91.315 Y74.257 E71.63676
G1 X114.185 Y93.447 E72.46604
G1 X115.023 Y93.431 E72.48931
G1 X92.172 Y74.257 E73.31791
G1 X93.029 Y74.257 E73.34171
G1 X115.860 Y93.415 E74.16961
G1 X116.698 Y93.399 E74.19288
G1 X93.885 Y74.257 E75.02010
G1 X94.742 Y74.257 E75.04390
G1 X117.536 Y93.383 E75.87043
G1 X118.373 Y93.367 E75.89370
G1 X95.599 Y74.257 E76.71954
G1 X96.455 Y74.257 E76.74333
G1 X119.211 Y93.351 E77.56849
G1 X120.049 Y93.335 E77.59176
G1 X97.312 Y74.257 E78.41622
G1 X98.169 Y74.257 E78.44002
G1 X120.886 Y93.319 E79.26379
G1 X121.724 Y93.303 E79.28706
G1 X99.025 Y74.257 E80.11015
G1 X99.882 Y74.257 E80.13394
G1 X122.562 Y93.287 E80.95634
G1 X123.399 Y93.271 E80.97961
G1 X100.739 Y74.257 E81.80132
G1 X101.595 Y74.257 E81.82512
G1 X124.237 Y93.255 E82.64613
G1 X125.075 Y93.239 E82.66941
G1 X102.452 Y74.257 E83.48974
G1 X103.309 Y74.257 E83.51353
G1 X125.912 Y93.223 E84.33317
G1 X126.750 Y93.207 E84.35645
G1 X104.165 Y74.257 E85.17540
G1 X105.022 Y74.257 E85.19920
G1 X127.588 Y93.192 E86.01746
G1 X128.425 Y93.176 E86.04073
G1 X105.878 Y74.257 E86.85831
G1 X106.735 Y74.257 E86.88210
G1 X129.263 Y93.160 E87.69899
G1 X129.202 Y92.390 E87.72044
G1 X107.592 Y74.257 E88.50406
G1 X108.448 Y74.257 E88.52786
G1 X128.397 Y90.996 E89.25123
M107
G1 X127.592 Y89.601 F7800.000
M106 S255
G1 X109.305 Y74.257 E89.91434 F3600.000
G1 X110.162 Y74.257 E89.93814
G1 X126.787 Y88.207 E90.54100
M107
G1 X125.982 Y86.813 F7800.000
M106 S255
G1 X111.018 Y74.257 E91.08361 F3600.000
G1 X111.875 Y74.257 E91.10741
G1 X125.177 Y85.419 E91.58976
M107
G1 X124.372 Y84.024 F7800.000
M106 S255
G1 X112.732 Y74.257 E92.01187 F3600.000
G1 X113.588 Y74.257 E92.03566
G1 X123.567 Y82.630 E92.39751
M107
G1 X122.762 Y81.236 F7800.000
M106 S255
G1 X114.445 Y74.257 E92.69910 F3600.000
G1 X115.302 Y74.257 E92.72290
G1 X121.957 Y79.841 E92.96424
M107
G1 X121.152 Y78.447 F7800.000
M106 S255
G1 X116.156 Y74.255 E93.14540 F3600.000
G1 X116.994 Y74.239 E93.16868
G1 X120.347 Y77.053 E93.29028
M107
G1 X119.542 Y75.658 F7800.000
M106 S255
G1 X117.832 Y74.223 E93.35231 F3600.000
G1 X118.737 Y74.264 E93.37750
G1 X118.669 Y74.207 E93.37997
M107
G1 X108.260 Y108.602 F7800.000
M106 S255
G1 X106.664 Y107.263 E93.43784 F3600.000
G1 X105.807 Y107.263 E93.46164
G1 X109.068 Y109.999 E93.57988
M107
G1 X109.876 Y111.396 F7800.000
M106 S255
G1 X104.951 Y107.263 E93.75850 F3600.000
G1 X104.094 Y107.263 E93.78230
G1 X110.685 Y112.793 E94.02128
M107
G1 X111.493 Y114.190 F7800.000
M106 S255
G1 X103.237 Y107.263 E94.32065 F3600.000
G1 X102.381 Y107.263 E94.34444
G1 X112.301 Y115.587 E94.70418
M107
G1 X113.109 Y116.984 F7800.000
M106 S255
G1 X101.524 Y107.263 E95.12428 F3600.000
G1 X100.667 Y107.263 E95.14808
G1 X113.918 Y118.381 E95.62856
M107
G1 X114.726 Y119.778 F7800.000
M106 S255
G1 X99.811 Y107.263 E96.16941 F3600.000
G1 X98.954 Y107.263 E96.19320
G1 X115.534 Y121.175 E96.79443
M107
G1 X116.342 Y122.572 F7800.000
M106 S255
